(.../pcb-gcode-3.6.0.4/pcb-gcode.ulp)
(Copyright 2005 - 2012 by John Johnson)
(See readme.txt for licensing terms.)
(This file generated from the board:)
(.../Proyectos/ZX81ExpCard/ZX81ExpCard.brd)
(Current profile is .../pcb-gcode-3.6.0.4/profiles/mach.pp  )
(This file generated 11/10/2014 11:03:38)
(Settings from pcb-machine.h)
(  Tool Size)
(0.1778  )
(Z Axis Settings)
(  High     Up        Down     Drill)
(12.7000 	2.5400  	-0.1778 	-0.8128 )
(spindle on time = 3.0000)
(milling depth = -0.2540)
(text depth = -0.1270)
(tool change at 0.0000  0.0000  10.0000 )
(feed rate xy = F508   )
(feed rate z  = F254   )
(Settings from pcb-defaults.h)
(isolate min = 0.0254)
(isolate max = 0.5080)
(isolate step = 0.1270)
(Generated top outlines, top drill, )
(Unit of measure: mm)
(Metric Mode)
G21
(Absolute Coordinates)
G90
G00 X0.0000  Y0.0000  
M03
G04 P3.000000
G00 Z2.5400  
G00 X96.1392 Y22.3150 
G01 Z-0.1778 F254   
G01 X96.0431 Y22.1827 F508   
G01 X95.9271 Y22.0667 
G01 X95.7948 Y21.9706 
G01 X95.6642 Y21.9040 
G01 X95.6642 Y21.9338 
G01 X95.7304 Y21.9611 
G01 X95.8965 Y22.0721 
G01 X96.0378 Y22.2134 
G01 X96.1488 Y22.3795 
G01 X96.1761 Y22.4455 
G01 X96.2057 Y22.4455 
G01 X96.1392 Y22.3150 
G00 Z2.5400  
G00 X94.3606 Y23.4048 
G01 Z-0.1778 F254   
G01 X94.4567 Y23.5371 F508   
G01 X94.5727 Y23.6531 
G01 X94.7050 Y23.7493 
G01 X94.8355 Y23.8158 
G01 X94.8355 Y23.7861 
G01 X94.7695 Y23.7588 
G01 X94.6034 Y23.6478 
G01 X94.4621 Y23.5065 
G01 X94.3511 Y23.3404 
G01 X94.3238 Y23.2742 
G01 X94.2940 Y23.2742 
G01 X94.3606 Y23.4048 
G00 Z2.5400  
G00 X94.4567 Y22.1827 
G01 Z-0.1778 F254   
G01 X94.3606 Y22.3150 F508   
G01 X94.2941 Y22.4455 
G01 X94.3238 Y22.4455 
G01 X94.3511 Y22.3795 
G01 X94.4621 Y22.2134 
G01 X94.6034 Y22.0721 
G01 X94.7695 Y21.9611 
G01 X94.8355 Y21.9338 
G01 X94.8355 Y21.9041 
G01 X94.7050 Y21.9706 
G01 X94.5727 Y22.0667 
G01 X94.4567 Y22.1827 
G00 Z2.5400  
G00 X95.7948 Y23.7493 
G01 Z-0.1778 F254   
G01 X95.9271 Y23.6531 F508   
G01 X96.0431 Y23.5371 
G01 X96.1393 Y23.4048 
G01 X96.2058 Y23.2742 
G01 X96.1761 Y23.2742 
G01 X96.1488 Y23.3404 
G01 X96.0378 Y23.5065 
G01 X95.8965 Y23.6478 
G01 X95.7304 Y23.7588 
G01 X95.6642 Y23.7862 
G01 X95.6642 Y23.8158 
G01 X95.7948 Y23.7493 
G00 Z2.5400  
G00 X79.3868 Y20.6216 
G01 Z-0.1778 F254   
G01 X78.9672 Y20.4478 F508   
G01 X78.5126 Y20.4478 
G01 X78.0930 Y20.6216 
G01 X77.7716 Y20.9430 
G01 X77.5978 Y21.3626 
G01 X77.5978 Y21.8172 
G01 X77.7716 Y22.2368 
G01 X78.0930 Y22.5582 
G01 X78.5126 Y22.7320 
G01 X78.9672 Y22.7320 
G01 X79.3868 Y22.5582 
G01 X79.7082 Y22.2368 
G01 X79.8820 Y21.8172 
G01 X79.8820 Y21.3627 
G01 X79.7082 Y20.9430 
G01 X79.3868 Y20.6216 
G00 Z2.5400  
G00 X79.7042 Y21.4949 
G01 Z-0.1778 F254   
G01 X79.7042 Y21.6850 F508   
G01 X79.6671 Y21.8712 
G01 X79.5945 Y22.0467 
G01 X79.4889 Y22.2046 
G01 X79.3546 Y22.3389 
G01 X79.1967 Y22.4445 
G01 X79.0212 Y22.5171 
G01 X78.8350 Y22.5542 
G01 X78.6449 Y22.5542 
G01 X78.4587 Y22.5171 
G01 X78.2832 Y22.4445 
G01 X78.1253 Y22.3389 
G01 X77.9910 Y22.2046 
G01 X77.8854 Y22.0467 
G01 X77.8128 Y21.8712 
G01 X77.7757 Y21.6850 
G01 X77.7757 Y21.4949 
G01 X77.8128 Y21.3087 
G01 X77.8854 Y21.1332 
G01 X77.9910 Y20.9753 
G01 X78.1253 Y20.8410 
G01 X78.2832 Y20.7354 
G01 X78.4587 Y20.6628 
G01 X78.6449 Y20.6257 
G01 X78.8350 Y20.6257 
G01 X79.0212 Y20.6628 
G01 X79.1967 Y20.7354 
G01 X79.3546 Y20.8410 
G01 X79.4889 Y20.9753 
G01 X79.5945 Y21.1332 
G01 X79.6671 Y21.3087 
G01 X79.7042 Y21.4949 
G00 Z2.5400  
G00 X59.0668 Y25.7016 
G01 Z-0.1778 F254   
G01 X58.6472 Y25.5278 F508   
G01 X58.1926 Y25.5278 
G01 X57.7730 Y25.7016 
G01 X57.4516 Y26.0230 
G01 X57.2778 Y26.4426 
G01 X57.2778 Y26.8972 
G01 X57.4516 Y27.3168 
G01 X57.7730 Y27.6382 
G01 X58.1926 Y27.8120 
G01 X58.6472 Y27.8120 
G01 X59.0668 Y27.6382 
G01 X59.3882 Y27.3168 
G01 X59.5620 Y26.8973 
G01 X59.5620 Y26.4426 
G01 X59.3882 Y26.0230 
G01 X59.0668 Y25.7016 
G00 Z2.5400  
G00 X59.3842 Y26.5749 
G01 Z-0.1778 F254   
G01 X59.3842 Y26.7650 F508   
G01 X59.3471 Y26.9512 
G01 X59.2745 Y27.1267 
G01 X59.1689 Y27.2846 
G01 X59.0346 Y27.4189 
G01 X58.8767 Y27.5245 
G01 X58.7012 Y27.5971 
G01 X58.5150 Y27.6342 
G01 X58.3249 Y27.6342 
G01 X58.1387 Y27.5971 
G01 X57.9632 Y27.5245 
G01 X57.8053 Y27.4189 
G01 X57.6710 Y27.2846 
G01 X57.5654 Y27.1267 
G01 X57.4928 Y26.9512 
G01 X57.4557 Y26.7650 
G01 X57.4557 Y26.5749 
G01 X57.4928 Y26.3887 
G01 X57.5654 Y26.2132 
G01 X57.6710 Y26.0553 
G01 X57.8053 Y25.9210 
G01 X57.9632 Y25.8154 
G01 X58.1387 Y25.7428 
G01 X58.3249 Y25.7057 
G01 X58.5150 Y25.7057 
G01 X58.7012 Y25.7428 
G01 X58.8767 Y25.8154 
G01 X59.0346 Y25.9210 
G01 X59.1689 Y26.0553 
G01 X59.2745 Y26.2132 
G01 X59.3471 Y26.3887 
G01 X59.3842 Y26.5749 
G00 Z2.5400  
G00 X69.2268 Y28.2416 
G01 Z-0.1778 F254   
G01 X68.8072 Y28.0678 F508   
G01 X68.3526 Y28.0678 
G01 X67.9330 Y28.2416 
G01 X67.6116 Y28.5630 
G01 X67.4378 Y28.9826 
G01 X67.4378 Y29.4372 
G01 X67.6116 Y29.8568 
G01 X67.9330 Y30.1782 
G01 X68.3526 Y30.3520 
G01 X68.8072 Y30.3520 
G01 X69.2268 Y30.1782 
G01 X69.5482 Y29.8568 
G01 X69.7220 Y29.4372 
G01 X69.7220 Y28.9827 
G01 X69.5482 Y28.5630 
G01 X69.2268 Y28.2416 
G00 Z2.5400  
G00 X69.5442 Y29.1149 
G01 Z-0.1778 F254   
G01 X69.5442 Y29.3050 F508   
G01 X69.5071 Y29.4912 
G01 X69.4345 Y29.6667 
G01 X69.3289 Y29.8246 
G01 X69.1946 Y29.9589 
G01 X69.0367 Y30.0645 
G01 X68.8612 Y30.1371 
G01 X68.6750 Y30.1742 
G01 X68.4849 Y30.1742 
G01 X68.2987 Y30.1371 
G01 X68.1232 Y30.0645 
G01 X67.9653 Y29.9589 
G01 X67.8310 Y29.8246 
G01 X67.7254 Y29.6667 
G01 X67.6528 Y29.4912 
G01 X67.6157 Y29.3050 
G01 X67.6157 Y29.1149 
G01 X67.6528 Y28.9287 
G01 X67.7254 Y28.7532 
G01 X67.8310 Y28.5953 
G01 X67.9653 Y28.4610 
G01 X68.1232 Y28.3554 
G01 X68.2987 Y28.2828 
G01 X68.4849 Y28.2457 
G01 X68.6750 Y28.2457 
G01 X68.8612 Y28.2828 
G01 X69.0367 Y28.3554 
G01 X69.1946 Y28.4610 
G01 X69.3289 Y28.5953 
G01 X69.4345 Y28.7532 
G01 X69.5071 Y28.9287 
G01 X69.5442 Y29.1149 
G00 Z2.5400  
G00 X89.5468 Y28.2416 
G01 Z-0.1778 F254   
G01 X89.1272 Y28.0678 F508   
G01 X88.6726 Y28.0678 
G01 X88.2530 Y28.2416 
G01 X87.9316 Y28.5630 
G01 X87.7578 Y28.9826 
G01 X87.7578 Y29.4372 
G01 X87.9316 Y29.8568 
G01 X88.2530 Y30.1782 
G01 X88.6726 Y30.3520 
G01 X89.1272 Y30.3520 
G01 X89.5468 Y30.1782 
G01 X89.8682 Y29.8568 
G01 X90.0420 Y29.4372 
G01 X90.0420 Y28.9827 
G01 X89.8682 Y28.5630 
G01 X89.5468 Y28.2416 
G00 Z2.5400  
G00 X89.8642 Y29.1149 
G01 Z-0.1778 F254   
G01 X89.8642 Y29.3050 F508   
G01 X89.8271 Y29.4912 
G01 X89.7545 Y29.6667 
G01 X89.6489 Y29.8246 
G01 X89.5146 Y29.9589 
G01 X89.3567 Y30.0645 
G01 X89.1812 Y30.1371 
G01 X88.9950 Y30.1742 
G01 X88.8049 Y30.1742 
G01 X88.6187 Y30.1371 
G01 X88.4432 Y30.0645 
G01 X88.2853 Y29.9589 
G01 X88.1510 Y29.8246 
G01 X88.0454 Y29.6667 
G01 X87.9728 Y29.4912 
G01 X87.9357 Y29.3050 
G01 X87.9357 Y29.1149 
G01 X87.9728 Y28.9287 
G01 X88.0454 Y28.7532 
G01 X88.1510 Y28.5953 
G01 X88.2853 Y28.4610 
G01 X88.4432 Y28.3554 
G01 X88.6187 Y28.2828 
G01 X88.8049 Y28.2457 
G01 X88.9950 Y28.2457 
G01 X89.1812 Y28.2828 
G01 X89.3567 Y28.3554 
G01 X89.5146 Y28.4610 
G01 X89.6489 Y28.5953 
G01 X89.7545 Y28.7532 
G01 X89.8271 Y28.9287 
G01 X89.8642 Y29.1149 
G00 Z2.5400  
G00 X78.1452 Y2.7992  
G01 Z-0.1778 F254   
G01 X77.7072 Y2.6178  F508   
G01 X77.2326 Y2.6178  
G01 X76.7946 Y2.7992  
G01 X76.4592 Y3.1346  
G01 X76.2778 Y3.5726  
G01 X76.2778 Y4.0472  
G01 X76.4592 Y4.4852  
G01 X76.7946 Y4.8206  
G01 X77.2326 Y5.0020  
G01 X77.7072 Y5.0020  
G01 X78.1452 Y4.8206  
G01 X78.4806 Y4.4852  
G01 X78.6620 Y4.0472  
G01 X78.6620 Y3.5726  
G01 X78.4806 Y3.1346  
G01 X78.1452 Y2.7992  
G00 Z2.5400  
G00 X78.4842 Y3.7100  
G01 Z-0.1778 F254   
G01 X78.4842 Y3.9099  F508   
G01 X78.4452 Y4.1058  
G01 X78.3688 Y4.2904  
G01 X78.2578 Y4.4565  
G01 X78.1165 Y4.5978  
G01 X77.9504 Y4.7088  
G01 X77.7658 Y4.7852  
G01 X77.5699 Y4.8242  
G01 X77.3700 Y4.8242  
G01 X77.1741 Y4.7852  
G01 X76.9895 Y4.7088  
G01 X76.8234 Y4.5978  
G01 X76.6821 Y4.4565  
G01 X76.5711 Y4.2904  
G01 X76.4947 Y4.1058  
G01 X76.4557 Y3.9099  
G01 X76.4557 Y3.7100  
G01 X76.4947 Y3.5141  
G01 X76.5711 Y3.3295  
G01 X76.6821 Y3.1634  
G01 X76.8234 Y3.0221  
G01 X76.9895 Y2.9111  
G01 X77.1741 Y2.8347  
G01 X77.3700 Y2.7957  
G01 X77.5699 Y2.7957  
G01 X77.7658 Y2.8347  
G01 X77.9504 Y2.9111  
G01 X78.1165 Y3.0221  
G01 X78.2578 Y3.1634  
G01 X78.3688 Y3.3295  
G01 X78.4452 Y3.5141  
G01 X78.4842 Y3.7100  
G00 Z2.5400  
G00 X88.3052 Y2.7992  
G01 Z-0.1778 F254   
G01 X87.8672 Y2.6178  F508   
G01 X87.3926 Y2.6178  
G01 X86.9546 Y2.7992  
G01 X86.6192 Y3.1346  
G01 X86.4378 Y3.5726  
G01 X86.4378 Y4.0472  
G01 X86.6192 Y4.4852  
G01 X86.9546 Y4.8206  
G01 X87.3926 Y5.0020  
G01 X87.8672 Y5.0020  
G01 X88.3052 Y4.8206  
G01 X88.6406 Y4.4852  
G01 X88.8220 Y4.0472  
G01 X88.8220 Y3.5727  
G01 X88.6406 Y3.1346  
G01 X88.3052 Y2.7992  
G00 Z2.5400  
G00 X88.6442 Y3.7100  
G01 Z-0.1778 F254   
G01 X88.6442 Y3.9099  F508   
G01 X88.6052 Y4.1058  
G01 X88.5288 Y4.2904  
G01 X88.4178 Y4.4565  
G01 X88.2765 Y4.5978  
G01 X88.1104 Y4.7088  
G01 X87.9258 Y4.7852  
G01 X87.7299 Y4.8242  
G01 X87.5300 Y4.8242  
G01 X87.3341 Y4.7852  
G01 X87.1495 Y4.7088  
G01 X86.9834 Y4.5978  
G01 X86.8421 Y4.4565  
G01 X86.7311 Y4.2904  
G01 X86.6547 Y4.1058  
G01 X86.6157 Y3.9099  
G01 X86.6157 Y3.7100  
G01 X86.6547 Y3.5141  
G01 X86.7311 Y3.3295  
G01 X86.8421 Y3.1634  
G01 X86.9834 Y3.0221  
G01 X87.1495 Y2.9111  
G01 X87.3341 Y2.8347  
G01 X87.5300 Y2.7957  
G01 X87.7299 Y2.7957  
G01 X87.9258 Y2.8347  
G01 X88.1104 Y2.9111  
G01 X88.2765 Y3.0221  
G01 X88.4178 Y3.1634  
G01 X88.5288 Y3.3295  
G01 X88.6052 Y3.5141  
G01 X88.6442 Y3.7100  
G00 Z2.5400  
G00 X96.2890 Y3.3081  
G01 Z-0.1778 F254   
G01 X95.7517 Y2.7708  F508   
G01 X95.0937 Y2.3908  
G01 X94.3598 Y2.1942  
G01 X93.6000 Y2.1942  
G01 X92.8660 Y2.3908  
G01 X92.2081 Y2.7708  
G01 X91.6708 Y3.3081  
G01 X91.2908 Y3.9661  
G01 X91.0942 Y4.7000  
G01 X91.0942 Y5.4598  
G01 X91.2908 Y6.1938  
G01 X91.6708 Y6.8517  
G01 X92.2081 Y7.3890  
G01 X92.8660 Y7.7690  
G01 X93.6000 Y7.9656  
G01 X94.3598 Y7.9656  
G01 X95.0938 Y7.7690  
G01 X95.7517 Y7.3890  
G01 X96.2891 Y6.8517  
G01 X96.6690 Y6.1938  
G01 X96.8656 Y5.4598  
G01 X96.8656 Y4.7001  
G01 X96.6690 Y3.9660  
G01 X96.2890 Y3.3081  
G00 Z2.5400  
G00 X82.2026 Y18.3575 
G01 Z-0.1778 F254   
G01 X82.2025 Y18.3575 F508   
G01 X82.1463 Y18.3012 
G01 X82.1435 Y18.2985 
G01 X82.1016 Y18.2260 
G01 X82.0861 Y18.1679 
G01 X82.0800 Y18.1454 
G01 X82.0800 Y18.0617 
G01 X82.0800 Y14.8745 
G01 X82.0856 Y14.8538 
G01 X82.1016 Y14.7938 
G01 X82.1434 Y14.7214 
G01 X82.2025 Y14.6623 
G01 X82.2482 Y14.6167 
G01 X82.4220 Y14.1972 
G01 X82.4220 Y13.7426 
G01 X82.2482 Y13.3231 
G01 X82.2026 Y13.2775 
G01 X82.1463 Y13.2212 
G01 X82.1435 Y13.2185 
G01 X82.1016 Y13.1460 
G01 X82.0861 Y13.0879 
G01 X82.0800 Y13.0654 
G01 X82.0800 Y12.9817 
G01 X82.0800 Y5.5010  
G01 X82.1016 Y5.4203  
G01 X82.1434 Y5.3479  
G01 X82.2025 Y5.2888  
G01 X82.4259 Y5.0654  
G01 X82.4983 Y5.0236  
G01 X82.5790 Y5.0020  
G01 X82.6627 Y5.0020  
G01 X82.7871 Y5.0020  
G01 X83.2252 Y4.8206  
G01 X83.5606 Y4.4852  
G01 X83.7420 Y4.0472  
G01 X83.7420 Y3.5726  
G01 X83.5606 Y3.1346  
G01 X83.2252 Y2.7992  
G01 X82.7872 Y2.6178  
G01 X82.3126 Y2.6178  
G01 X81.8746 Y2.7992  
G01 X81.5392 Y3.1346  
G01 X81.3578 Y3.5726  
G01 X81.3578 Y3.7808  
G01 X81.3362 Y3.8615  
G01 X81.2944 Y3.9339  
G01 X81.2353 Y3.9930  
G01 X80.8418 Y4.3865  
G01 X80.6015 Y4.6268  
G01 X80.4798 Y4.9208  
G01 X80.4798 Y13.0653 
G01 X80.4742 Y13.0860 
G01 X80.4582 Y13.1460 
G01 X80.4164 Y13.2184 
G01 X80.3573 Y13.2775 
G01 X80.3116 Y13.3231 
G01 X80.1378 Y13.7426 
G01 X80.1378 Y14.1972 
G01 X80.3116 Y14.6167 
G01 X80.3572 Y14.6623 
G01 X80.4135 Y14.7186 
G01 X80.4163 Y14.7213 
G01 X80.4582 Y14.7938 
G01 X80.4737 Y14.8519 
G01 X80.4798 Y14.8744 
G01 X80.4798 Y14.9581 
G01 X80.4798 Y16.1096 
G01 X80.4825 Y16.1301 
G01 X80.4798 Y16.1507 
G01 X80.4798 Y16.1720 
G01 X80.4743 Y16.1925 
G01 X80.4716 Y16.2131 
G01 X80.4637 Y16.2321 
G01 X80.4582 Y16.2527 
G01 X80.4475 Y16.2712 
G01 X80.4396 Y16.2903 
G01 X80.4270 Y16.3066 
G01 X80.4164 Y16.3251 
G01 X80.4012 Y16.3402 
G01 X80.3887 Y16.3566 
G01 X80.3723 Y16.3691 
G01 X80.3573 Y16.3842 
G01 X80.3389 Y16.3948 
G01 X80.3224 Y16.4075 
G01 X80.3032 Y16.4154 
G01 X80.2849 Y16.4260 
G01 X80.2642 Y16.4315 
G01 X80.2452 Y16.4394 
G01 X80.2248 Y16.4420 
G01 X80.2042 Y16.4476 
G01 X80.1829 Y16.4476 
G01 X80.1624 Y16.4503 
G01 X80.1418 Y16.4476 
G01 X80.1205 Y16.4476 
G01 X80.1000 Y16.4421 
G01 X80.0794 Y16.4394 
G01 X80.0604 Y16.4315 
G01 X80.0398 Y16.4260 
G01 X80.0213 Y16.4153 
G01 X80.0022 Y16.4074 
G01 X79.9859 Y16.3948 
G01 X79.9674 Y16.3842 
G01 X79.9523 Y16.3690 
G01 X79.9359 Y16.3565 
G01 X79.9234 Y16.3401 
G01 X79.9083 Y16.3251 
G01 X79.8977 Y16.3067 
G01 X79.8850 Y16.2902 
G01 X79.8771 Y16.2709 
G01 X79.8665 Y16.2527 
G01 X79.8611 Y16.2323 
G01 X79.7082 Y15.8630 
G01 X79.3868 Y15.5416 
G01 X78.9672 Y15.3678 
G01 X78.5126 Y15.3678 
G01 X78.0930 Y15.5416 
G01 X77.7716 Y15.8630 
G01 X77.5978 Y16.2826 
G01 X77.5978 Y16.7372 
G01 X77.7716 Y17.1568 
G01 X78.0930 Y17.4782 
G01 X78.5126 Y17.6520 
G01 X78.9672 Y17.6520 
G01 X79.3868 Y17.4782 
G01 X79.7082 Y17.1568 
G01 X79.8611 Y16.7875 
G01 X79.8665 Y16.7671 
G01 X79.8770 Y16.7489 
G01 X79.8850 Y16.7296 
G01 X79.8977 Y16.7131 
G01 X79.9083 Y16.6947 
G01 X79.9234 Y16.6797 
G01 X79.9359 Y16.6633 
G01 X79.9523 Y16.6508 
G01 X79.9674 Y16.6356 
G01 X79.9859 Y16.6250 
G01 X80.0022 Y16.6124 
G01 X80.0213 Y16.6045 
G01 X80.0398 Y16.5938 
G01 X80.0604 Y16.5883 
G01 X80.0794 Y16.5804 
G01 X80.1000 Y16.5777 
G01 X80.1205 Y16.5722 
G01 X80.1418 Y16.5722 
G01 X80.1624 Y16.5695 
G01 X80.1829 Y16.5722 
G01 X80.2042 Y16.5722 
G01 X80.2248 Y16.5777 
G01 X80.2452 Y16.5804 
G01 X80.2642 Y16.5883 
G01 X80.2849 Y16.5938 
G01 X80.3032 Y16.6044 
G01 X80.3224 Y16.6123 
G01 X80.3389 Y16.6250 
G01 X80.3573 Y16.6356 
G01 X80.3723 Y16.6507 
G01 X80.3887 Y16.6632 
G01 X80.4012 Y16.6796 
G01 X80.4164 Y16.6947 
G01 X80.4270 Y16.7132 
G01 X80.4396 Y16.7295 
G01 X80.4475 Y16.7486 
G01 X80.4582 Y16.7671 
G01 X80.4637 Y16.7877 
G01 X80.4716 Y16.8067 
G01 X80.4743 Y16.8273 
G01 X80.4798 Y16.8478 
G01 X80.4798 Y16.8691 
G01 X80.4825 Y16.8897 
G01 X80.4798 Y16.9102 
G01 X80.4798 Y18.1453 
G01 X80.4742 Y18.1660 
G01 X80.4582 Y18.2260 
G01 X80.4164 Y18.2984 
G01 X80.3573 Y18.3575 
G01 X80.3116 Y18.4031 
G01 X80.1378 Y18.8226 
G01 X80.1378 Y19.2772 
G01 X80.3116 Y19.6968 
G01 X80.6330 Y20.0182 
G01 X81.0526 Y20.1920 
G01 X81.5072 Y20.1920 
G01 X81.9268 Y20.0182 
G01 X82.2482 Y19.6968 
G01 X82.4220 Y19.2772 
G01 X82.4220 Y18.8226 
G01 X82.2482 Y18.4031 
G01 X82.2026 Y18.3575 
G00 Z2.5400  
G00 X79.7042 Y16.4149 
G01 Z-0.1778 F254   
G01 X79.7042 Y16.6050 F508   
G01 X79.6671 Y16.7912 
G01 X79.5945 Y16.9667 
G01 X79.4889 Y17.1246 
G01 X79.3546 Y17.2589 
G01 X79.1967 Y17.3645 
G01 X79.0212 Y17.4371 
G01 X78.8350 Y17.4742 
G01 X78.6449 Y17.4742 
G01 X78.4587 Y17.4371 
G01 X78.2832 Y17.3645 
G01 X78.1253 Y17.2589 
G01 X77.9910 Y17.1246 
G01 X77.8854 Y16.9667 
G01 X77.8128 Y16.7912 
G01 X77.7757 Y16.6050 
G01 X77.7757 Y16.4149 
G01 X77.8128 Y16.2287 
G01 X77.8854 Y16.0532 
G01 X77.9910 Y15.8953 
G01 X78.1253 Y15.7610 
G01 X78.2832 Y15.6554 
G01 X78.4587 Y15.5828 
G01 X78.6449 Y15.5457 
G01 X78.8350 Y15.5457 
G01 X79.0212 Y15.5828 
G01 X79.1967 Y15.6554 
G01 X79.3546 Y15.7610 
G01 X79.4889 Y15.8953 
G01 X79.5945 Y16.0532 
G01 X79.6671 Y16.2287 
G01 X79.7042 Y16.4149 
G00 Z2.5400  
G00 X82.2442 Y18.9549 
G01 Z-0.1778 F254   
G01 X82.2442 Y19.1450 F508   
G01 X82.2071 Y19.3312 
G01 X82.1345 Y19.5067 
G01 X82.0289 Y19.6646 
G01 X81.8946 Y19.7989 
G01 X81.7367 Y19.9045 
G01 X81.5612 Y19.9771 
G01 X81.3750 Y20.0142 
G01 X81.1849 Y20.0142 
G01 X80.9987 Y19.9771 
G01 X80.8232 Y19.9045 
G01 X80.6653 Y19.7989 
G01 X80.5310 Y19.6646 
G01 X80.4254 Y19.5067 
G01 X80.3528 Y19.3312 
G01 X80.3157 Y19.1450 
G01 X80.3157 Y18.9549 
G01 X80.3528 Y18.7687 
G01 X80.4254 Y18.5932 
G01 X80.5310 Y18.4353 
G01 X80.6577 Y18.3086 
G01 X80.6577 Y14.7113 
G01 X80.5310 Y14.5846 
G01 X80.4254 Y14.4267 
G01 X80.3528 Y14.2512 
G01 X80.3157 Y14.0650 
G01 X80.3157 Y13.8749 
G01 X80.3528 Y13.6887 
G01 X80.4254 Y13.5132 
G01 X80.5310 Y13.3553 
G01 X80.6577 Y13.2286 
G01 X80.6577 Y5.0186  
G01 X80.6816 Y4.8984  
G01 X80.7285 Y4.7852  
G01 X80.7966 Y4.6833  
G01 X80.8833 Y4.5966  
G01 X81.5414 Y3.9386  
G01 X81.5357 Y3.9099  
G01 X81.5357 Y3.7100  
G01 X81.5747 Y3.5141  
G01 X81.6511 Y3.3295  
G01 X81.7621 Y3.1634  
G01 X81.9034 Y3.0221  
G01 X82.0695 Y2.9111  
G01 X82.2541 Y2.8347  
G01 X82.4500 Y2.7957  
G01 X82.6499 Y2.7957  
G01 X82.8458 Y2.8347  
G01 X83.0304 Y2.9111  
G01 X83.1965 Y3.0221  
G01 X83.3378 Y3.1634  
G01 X83.4488 Y3.3295  
G01 X83.5252 Y3.5141  
G01 X83.5642 Y3.7100  
G01 X83.5642 Y3.9099  
G01 X83.5252 Y4.1058  
G01 X83.4488 Y4.2904  
G01 X83.3378 Y4.4565  
G01 X83.1965 Y4.5978  
G01 X83.0304 Y4.7088  
G01 X82.8458 Y4.7852  
G01 X82.6499 Y4.8242  
G01 X82.4500 Y4.8242  
G01 X82.4213 Y4.8185  
G01 X81.9022 Y5.3377  
G01 X81.9022 Y13.2286 
G01 X82.0289 Y13.3553 
G01 X82.1345 Y13.5132 
G01 X82.2071 Y13.6887 
G01 X82.2442 Y13.8749 
G01 X82.2442 Y14.0650 
G01 X82.2071 Y14.2512 
G01 X82.1345 Y14.4267 
G01 X82.0289 Y14.5846 
G01 X81.9022 Y14.7113 
G01 X81.9022 Y18.3086 
G01 X82.0289 Y18.4353 
G01 X82.1345 Y18.5932 
G01 X82.2071 Y18.7687 
G01 X82.2442 Y18.9549 
G00 Z2.5400  
G00 X89.5468 Y23.1616 
G01 Z-0.1778 F254   
G01 X89.1272 Y22.9878 F508   
G01 X88.6726 Y22.9878 
G01 X88.2530 Y23.1616 
G01 X87.9316 Y23.4830 
G01 X87.7578 Y23.9026 
G01 X87.7578 Y24.3572 
G01 X87.9316 Y24.7768 
G01 X88.2530 Y25.0982 
G01 X88.6726 Y25.2720 
G01 X89.1272 Y25.2720 
G01 X89.5468 Y25.0982 
G01 X89.8682 Y24.7768 
G01 X90.0420 Y24.3572 
G01 X90.0420 Y23.9027 
G01 X89.8682 Y23.4830 
G01 X89.5468 Y23.1616 
G00 Z2.5400  
G00 X89.8642 Y24.0349 
G01 Z-0.1778 F254   
G01 X89.8642 Y24.2250 F508   
G01 X89.8271 Y24.4112 
G01 X89.7545 Y24.5867 
G01 X89.6489 Y24.7446 
G01 X89.5146 Y24.8789 
G01 X89.3567 Y24.9845 
G01 X89.1812 Y25.0571 
G01 X88.9950 Y25.0942 
G01 X88.8049 Y25.0942 
G01 X88.6187 Y25.0571 
G01 X88.4432 Y24.9845 
G01 X88.2853 Y24.8789 
G01 X88.1510 Y24.7446 
G01 X88.0454 Y24.5867 
G01 X87.9728 Y24.4112 
G01 X87.9357 Y24.2250 
G01 X87.9357 Y24.0349 
G01 X87.9728 Y23.8487 
G01 X88.0454 Y23.6732 
G01 X88.1510 Y23.5153 
G01 X88.2853 Y23.3810 
G01 X88.4432 Y23.2754 
G01 X88.6187 Y23.2028 
G01 X88.8049 Y23.1657 
G01 X88.9950 Y23.1657 
G01 X89.1812 Y23.2028 
G01 X89.3567 Y23.2754 
G01 X89.5146 Y23.3810 
G01 X89.6489 Y23.5153 
G01 X89.7545 Y23.6732 
G01 X89.8271 Y23.8487 
G01 X89.8642 Y24.0349 
G00 Z2.5400  
G00 X69.2268 Y23.1616 
G01 Z-0.1778 F254   
G01 X68.8072 Y22.9878 F508   
G01 X68.3526 Y22.9878 
G01 X67.9330 Y23.1616 
G01 X67.6116 Y23.4830 
G01 X67.4378 Y23.9025 
G01 X67.4378 Y24.3572 
G01 X67.6116 Y24.7768 
G01 X67.9330 Y25.0982 
G01 X68.3526 Y25.2720 
G01 X68.8072 Y25.2720 
G01 X69.2268 Y25.0982 
G01 X69.5482 Y24.7768 
G01 X69.7220 Y24.3572 
G01 X69.7220 Y23.9026 
G01 X69.5482 Y23.4830 
G01 X69.2268 Y23.1616 
G00 Z2.5400  
G00 X69.5442 Y24.0349 
G01 Z-0.1778 F254   
G01 X69.5442 Y24.2250 F508   
G01 X69.5071 Y24.4112 
G01 X69.4345 Y24.5867 
G01 X69.3289 Y24.7446 
G01 X69.1946 Y24.8789 
G01 X69.0367 Y24.9845 
G01 X68.8612 Y25.0571 
G01 X68.6750 Y25.0942 
G01 X68.4849 Y25.0942 
G01 X68.2987 Y25.0571 
G01 X68.1232 Y24.9845 
G01 X67.9653 Y24.8789 
G01 X67.8310 Y24.7446 
G01 X67.7254 Y24.5867 
G01 X67.6528 Y24.4112 
G01 X67.6157 Y24.2250 
G01 X67.6157 Y24.0349 
G01 X67.6528 Y23.8487 
G01 X67.7254 Y23.6732 
G01 X67.8310 Y23.5153 
G01 X67.9653 Y23.3810 
G01 X68.1232 Y23.2754 
G01 X68.2987 Y23.2028 
G01 X68.4849 Y23.1657 
G01 X68.6750 Y23.1657 
G01 X68.8612 Y23.2028 
G01 X69.0367 Y23.2754 
G01 X69.1946 Y23.3810 
G01 X69.3289 Y23.5153 
G01 X69.4345 Y23.6732 
G01 X69.5071 Y23.8487 
G01 X69.5442 Y24.0349 
G00 Z2.5400  
G00 X95.9252 Y26.9292 
G01 Z-0.1778 F254   
G01 X95.4872 Y26.7478 F508   
G01 X95.0126 Y26.7478 
G01 X94.5746 Y26.9292 
G01 X94.2392 Y27.2646 
G01 X94.0578 Y27.7026 
G01 X94.0578 Y28.1772 
G01 X94.2392 Y28.6152 
G01 X94.5746 Y28.9506 
G01 X95.0126 Y29.1320 
G01 X95.4872 Y29.1320 
G01 X95.9252 Y28.9506 
G01 X96.2606 Y28.6152 
G01 X96.4420 Y28.1772 
G01 X96.4420 Y27.7027 
G01 X96.2606 Y27.2646 
G01 X95.9252 Y26.9292 
G00 Z2.5400  
G00 X96.2642 Y27.8400 
G01 Z-0.1778 F254   
G01 X96.2642 Y28.0399 F508   
G01 X96.2252 Y28.2358 
G01 X96.1488 Y28.4204 
G01 X96.0378 Y28.5865 
G01 X95.8965 Y28.7278 
G01 X95.7304 Y28.8388 
G01 X95.5458 Y28.9152 
G01 X95.3499 Y28.9542 
G01 X95.1500 Y28.9542 
G01 X94.9541 Y28.9152 
G01 X94.7695 Y28.8388 
G01 X94.6034 Y28.7278 
G01 X94.4621 Y28.5865 
G01 X94.3511 Y28.4204 
G01 X94.2747 Y28.2358 
G01 X94.2357 Y28.0399 
G01 X94.2357 Y27.8400 
G01 X94.2747 Y27.6441 
G01 X94.3511 Y27.4595 
G01 X94.4621 Y27.2934 
G01 X94.6034 Y27.1521 
G01 X94.7695 Y27.0411 
G01 X94.9541 Y26.9647 
G01 X95.1500 Y26.9257 
G01 X95.3499 Y26.9257 
G01 X95.5458 Y26.9647 
G01 X95.7304 Y27.0411 
G01 X95.8965 Y27.1521 
G01 X96.0378 Y27.2934 
G01 X96.1488 Y27.4595 
G01 X96.2252 Y27.6441 
G01 X96.2642 Y27.8400 
G00 Z2.5400  
G00 X31.1268 Y25.7016 
G01 Z-0.1778 F254   
G01 X30.7072 Y25.5278 F508   
G01 X30.2526 Y25.5278 
G01 X29.8330 Y25.7016 
G01 X29.5116 Y26.0230 
G01 X29.3378 Y26.4426 
G01 X29.3378 Y26.8972 
G01 X29.5116 Y27.3168 
G01 X29.8330 Y27.6382 
G01 X30.2526 Y27.8120 
G01 X30.7072 Y27.8120 
G01 X31.1268 Y27.6382 
G01 X31.4482 Y27.3168 
G01 X31.6220 Y26.8972 
G01 X31.6220 Y26.4427 
G01 X31.4482 Y26.0230 
G01 X31.1268 Y25.7016 
G00 Z2.5400  
G00 X31.4442 Y26.5749 
G01 Z-0.1778 F254   
G01 X31.4442 Y26.7650 F508   
G01 X31.4071 Y26.9512 
G01 X31.3345 Y27.1267 
G01 X31.2289 Y27.2846 
G01 X31.0946 Y27.4189 
G01 X30.9367 Y27.5245 
G01 X30.7612 Y27.5971 
G01 X30.5750 Y27.6342 
G01 X30.3849 Y27.6342 
G01 X30.1987 Y27.5971 
G01 X30.0232 Y27.5245 
G01 X29.8653 Y27.4189 
G01 X29.7310 Y27.2846 
G01 X29.6254 Y27.1267 
G01 X29.5528 Y26.9512 
G01 X29.5157 Y26.7650 
G01 X29.5157 Y26.5749 
G01 X29.5528 Y26.3887 
G01 X29.6254 Y26.2132 
G01 X29.7310 Y26.0553 
G01 X29.8653 Y25.9210 
G01 X30.0232 Y25.8154 
G01 X30.1987 Y25.7428 
G01 X30.3849 Y25.7057 
G01 X30.5750 Y25.7057 
G01 X30.7612 Y25.7428 
G01 X30.9367 Y25.8154 
G01 X31.0946 Y25.9210 
G01 X31.2289 Y26.0553 
G01 X31.3345 Y26.2132 
G01 X31.4071 Y26.3887 
G01 X31.4442 Y26.5749 
G00 Z2.5400  
G00 X18.4268 Y25.7016 
G01 Z-0.1778 F254   
G01 X18.0072 Y25.5278 F508   
G01 X17.5526 Y25.5278 
G01 X17.1330 Y25.7016 
G01 X16.8116 Y26.0230 
G01 X16.6378 Y26.4426 
G01 X16.6378 Y26.8972 
G01 X16.8116 Y27.3168 
G01 X17.1330 Y27.6382 
G01 X17.5526 Y27.8120 
G01 X18.0072 Y27.8120 
G01 X18.4268 Y27.6382 
G01 X18.7482 Y27.3168 
G01 X18.9220 Y26.8972 
G01 X18.9220 Y26.4427 
G01 X18.7482 Y26.0230 
G01 X18.4268 Y25.7016 
G00 Z2.5400  
G00 X18.7442 Y26.5749 
G01 Z-0.1778 F254   
G01 X18.7442 Y26.7650 F508   
G01 X18.7071 Y26.9512 
G01 X18.6345 Y27.1267 
G01 X18.5289 Y27.2846 
G01 X18.3946 Y27.4189 
G01 X18.2367 Y27.5245 
G01 X18.0612 Y27.5971 
G01 X17.8750 Y27.6342 
G01 X17.6849 Y27.6342 
G01 X17.4987 Y27.5971 
G01 X17.3232 Y27.5245 
G01 X17.1653 Y27.4189 
G01 X17.0310 Y27.2846 
G01 X16.9254 Y27.1267 
G01 X16.8528 Y26.9512 
G01 X16.8157 Y26.7650 
G01 X16.8157 Y26.5749 
G01 X16.8528 Y26.3887 
G01 X16.9254 Y26.2132 
G01 X17.0310 Y26.0553 
G01 X17.1653 Y25.9210 
G01 X17.3232 Y25.8154 
G01 X17.4987 Y25.7428 
G01 X17.6849 Y25.7057 
G01 X17.8750 Y25.7057 
G01 X18.0612 Y25.7428 
G01 X18.2367 Y25.8154 
G01 X18.3946 Y25.9210 
G01 X18.5289 Y26.0553 
G01 X18.6345 Y26.2132 
G01 X18.7071 Y26.3887 
G01 X18.7442 Y26.5749 
G00 Z2.5400  
G00 X41.2868 Y28.2416 
G01 Z-0.1778 F254   
G01 X40.8672 Y28.0678 F508   
G01 X40.4126 Y28.0678 
G01 X39.9930 Y28.2416 
G01 X39.6716 Y28.5630 
G01 X39.4978 Y28.9826 
G01 X39.4978 Y29.4372 
G01 X39.6716 Y29.8568 
G01 X39.9930 Y30.1782 
G01 X40.4126 Y30.3520 
G01 X40.8672 Y30.3520 
G01 X41.2868 Y30.1782 
G01 X41.6082 Y29.8568 
G01 X41.7820 Y29.4372 
G01 X41.7820 Y28.9827 
G01 X41.6082 Y28.5630 
G01 X41.2868 Y28.2416 
G00 Z2.5400  
G00 X41.6042 Y29.1149 
G01 Z-0.1778 F254   
G01 X41.6042 Y29.3050 F508   
G01 X41.5671 Y29.4912 
G01 X41.4945 Y29.6667 
G01 X41.3889 Y29.8246 
G01 X41.2546 Y29.9589 
G01 X41.0967 Y30.0645 
G01 X40.9212 Y30.1371 
G01 X40.7350 Y30.1742 
G01 X40.5449 Y30.1742 
G01 X40.3587 Y30.1371 
G01 X40.1832 Y30.0645 
G01 X40.0253 Y29.9589 
G01 X39.8910 Y29.8246 
G01 X39.7854 Y29.6667 
G01 X39.7128 Y29.4912 
G01 X39.6757 Y29.3050 
G01 X39.6757 Y29.1149 
G01 X39.7128 Y28.9287 
G01 X39.7854 Y28.7532 
G01 X39.8910 Y28.5953 
G01 X40.0253 Y28.4610 
G01 X40.1832 Y28.3554 
G01 X40.3587 Y28.2828 
G01 X40.5449 Y28.2457 
G01 X40.7350 Y28.2457 
G01 X40.9212 Y28.2828 
G01 X41.0967 Y28.3554 
G01 X41.2546 Y28.4610 
G01 X41.3889 Y28.5953 
G01 X41.4945 Y28.7532 
G01 X41.5671 Y28.9287 
G01 X41.6042 Y29.1149 
G00 Z2.5400  
G00 X15.9632 Y37.6300 
G01 Z-0.1778 F254   
G01 X16.0876 Y37.6104 F508   
G01 X16.2074 Y37.5714 
G01 X16.3198 Y37.5142 
G01 X16.4214 Y37.4404 
G01 X16.5108 Y37.3510 
G01 X16.5846 Y37.2494 
G01 X16.6363 Y37.1478 
G01 X16.6071 Y37.1478 
G01 X16.5868 Y37.1969 
G01 X16.5021 Y37.3238 
G01 X16.3942 Y37.4317 
G01 X16.2673 Y37.5164 
G01 X16.1263 Y37.5748 
G01 X15.9767 Y37.6046 
G01 X15.5578 Y37.6046 
G01 X15.5578 Y37.6300 
G01 X15.9632 Y37.6300 
G00 Z2.5400  
G00 X14.5166 Y36.0298 
G01 Z-0.1778 F254   
G01 X14.3922 Y36.0494 F508   
G01 X14.2723 Y36.0884 
G01 X14.1600 Y36.1456 
G01 X14.0584 Y36.2194 
G01 X13.9690 Y36.3088 
G01 X13.8952 Y36.4104 
G01 X13.8435 Y36.5119 
G01 X13.8729 Y36.5119 
G01 X13.8931 Y36.4630 
G01 X13.9778 Y36.3361 
G01 X14.0857 Y36.2282 
G01 X14.2126 Y36.1435 
G01 X14.3536 Y36.0851 
G01 X14.5032 Y36.0553 
G01 X14.9219 Y36.0553 
G01 X14.9219 Y36.0298 
G01 X14.5166 Y36.0298 
G00 Z2.5400  
G00 X16.4214 Y36.2194 
G01 Z-0.1778 F254   
G01 X16.3198 Y36.1456 F508   
G01 X16.2074 Y36.0884 
G01 X16.0876 Y36.0494 
G01 X15.9632 Y36.0298 
G01 X15.5578 Y36.0298 
G01 X15.5578 Y36.0553 
G01 X15.9767 Y36.0553 
G01 X16.1263 Y36.0851 
G01 X16.2673 Y36.1435 
G01 X16.3942 Y36.2282 
G01 X16.5021 Y36.3361 
G01 X16.5868 Y36.4630 
G01 X16.6070 Y36.5119 
G01 X16.6363 Y36.5119 
G01 X16.5846 Y36.4104 
G01 X16.5107 Y36.3088 
G01 X16.4214 Y36.2194 
G00 Z2.5400  
G00 X18.0072 Y20.4478 
G01 Z-0.1778 F254   
G01 X17.5526 Y20.4478 F508   
G01 X17.1330 Y20.6216 
G01 X16.8116 Y20.9430 
G01 X16.6378 Y21.3626 
G01 X16.6378 Y21.8172 
G01 X16.8116 Y22.2368 
G01 X17.1330 Y22.5582 
G01 X17.5525 Y22.7320 
G01 X18.0072 Y22.7320 
G01 X18.4268 Y22.5582 
G01 X18.7482 Y22.2368 
G01 X18.9220 Y21.8172 
G01 X18.9220 Y21.3626 
G01 X18.7482 Y20.9430 
G01 X18.4268 Y20.6216 
G01 X18.0072 Y20.4478 
G00 Z2.5400  
G00 X18.7442 Y21.4949 
G01 Z-0.1778 F254   
G01 X18.7442 Y21.6850 F508   
G01 X18.7071 Y21.8712 
G01 X18.6345 Y22.0467 
G01 X18.5289 Y22.2046 
G01 X18.3946 Y22.3389 
G01 X18.2367 Y22.4445 
G01 X18.0612 Y22.5171 
G01 X17.8750 Y22.5542 
G01 X17.6849 Y22.5542 
G01 X17.4987 Y22.5171 
G01 X17.3232 Y22.4445 
G01 X17.1653 Y22.3389 
G01 X17.0310 Y22.2046 
G01 X16.9254 Y22.0467 
G01 X16.8528 Y21.8712 
G01 X16.8157 Y21.6850 
G01 X16.8157 Y21.4949 
G01 X16.8528 Y21.3087 
G01 X16.9254 Y21.1332 
G01 X17.0310 Y20.9753 
G01 X17.1653 Y20.8410 
G01 X17.3232 Y20.7354 
G01 X17.4987 Y20.6628 
G01 X17.6849 Y20.6257 
G01 X17.8750 Y20.6257 
G01 X18.0612 Y20.6628 
G01 X18.2367 Y20.7354 
G01 X18.3946 Y20.8410 
G01 X18.5289 Y20.9753 
G01 X18.6345 Y21.1332 
G01 X18.7071 Y21.3087 
G01 X18.7442 Y21.4949 
G00 Z2.5400  
G00 X20.5472 Y28.0678 
G01 Z-0.1778 F254   
G01 X20.0926 Y28.0678 F508   
G01 X19.6730 Y28.2416 
G01 X19.3516 Y28.5630 
G01 X19.1778 Y28.9826 
G01 X19.1778 Y29.4372 
G01 X19.3516 Y29.8568 
G01 X19.6730 Y30.1782 
G01 X20.0926 Y30.3520 
G01 X20.5472 Y30.3520 
G01 X20.9668 Y30.1782 
G01 X21.2882 Y29.8568 
G01 X21.4620 Y29.4372 
G01 X21.4620 Y28.9827 
G01 X21.2882 Y28.5630 
G01 X20.9668 Y28.2416 
G01 X20.5472 Y28.0678 
G00 Z2.5400  
G00 X21.2842 Y29.1149 
G01 Z-0.1778 F254   
G01 X21.2842 Y29.3050 F508   
G01 X21.2471 Y29.4912 
G01 X21.1745 Y29.6667 
G01 X21.0689 Y29.8246 
G01 X20.9346 Y29.9589 
G01 X20.7767 Y30.0645 
G01 X20.6012 Y30.1371 
G01 X20.4150 Y30.1742 
G01 X20.2249 Y30.1742 
G01 X20.0387 Y30.1371 
G01 X19.8632 Y30.0645 
G01 X19.7053 Y29.9589 
G01 X19.5710 Y29.8246 
G01 X19.4654 Y29.6667 
G01 X19.3928 Y29.4912 
G01 X19.3557 Y29.3050 
G01 X19.3557 Y29.1149 
G01 X19.3928 Y28.9287 
G01 X19.4654 Y28.7532 
G01 X19.5710 Y28.5953 
G01 X19.7053 Y28.4610 
G01 X19.8632 Y28.3554 
G01 X20.0387 Y28.2828 
G01 X20.2249 Y28.2457 
G01 X20.4150 Y28.2457 
G01 X20.6012 Y28.2828 
G01 X20.7767 Y28.3554 
G01 X20.9346 Y28.4610 
G01 X21.0689 Y28.5953 
G01 X21.1745 Y28.7532 
G01 X21.2471 Y28.9287 
G01 X21.2842 Y29.1149 
G00 Z2.5400  
G00 X13.8952 Y37.2494 
G01 Z-0.1778 F254   
G01 X13.9691 Y37.3510 F508   
G01 X14.0584 Y37.4404 
G01 X14.1601 Y37.5142 
G01 X14.2724 Y37.5714 
G01 X14.3922 Y37.6104 
G01 X14.5166 Y37.6300 
G01 X14.9219 Y37.6300 
G01 X14.9219 Y37.6046 
G01 X14.5032 Y37.6046 
G01 X14.3536 Y37.5748 
G01 X14.2126 Y37.5164 
G01 X14.0857 Y37.4317 
G01 X13.9778 Y37.3238 
G01 X13.8931 Y37.1969 
G01 X13.8728 Y37.1478 
G01 X13.8435 Y37.1478 
G01 X13.8952 Y37.2494 
G00 Z2.5400  
G00 X7.3890  Y3.3081  
G01 Z-0.1778 F254   
G01 X6.8517  Y2.7708  F508   
G01 X6.1937  Y2.3908  
G01 X5.4598  Y2.1942  
G01 X4.7000  Y2.1942  
G01 X3.9660  Y2.3908  
G01 X3.3081  Y2.7708  
G01 X2.7708  Y3.3081  
G01 X2.3908  Y3.9661  
G01 X2.1942  Y4.7000  
G01 X2.1942  Y5.4598  
G01 X2.3908  Y6.1938  
G01 X2.7708  Y6.8517  
G01 X3.3081  Y7.3890  
G01 X3.9660  Y7.7690  
G01 X4.7000  Y7.9656  
G01 X5.4598  Y7.9656  
G01 X6.1938  Y7.7690  
G01 X6.8517  Y7.3890  
G01 X7.3891  Y6.8517  
G01 X7.7690  Y6.1938  
G01 X7.9656  Y5.4598  
G01 X7.9656  Y4.7001  
G01 X7.7690  Y3.9660  
G01 X7.3890  Y3.3081  
G00 Z2.5400  
G00 X27.3452 Y2.7992  
G01 Z-0.1778 F254   
G01 X26.9072 Y2.6178  F508   
G01 X26.4326 Y2.6178  
G01 X25.9946 Y2.7992  
G01 X25.6592 Y3.1346  
G01 X25.4778 Y3.5726  
G01 X25.4778 Y4.0472  
G01 X25.6592 Y4.4852  
G01 X25.9946 Y4.8206  
G01 X26.4325 Y5.0020  
G01 X26.9072 Y5.0020  
G01 X27.3452 Y4.8206  
G01 X27.6806 Y4.4852  
G01 X27.8620 Y4.0472  
G01 X27.8620 Y3.5726  
G01 X27.6806 Y3.1346  
G01 X27.3452 Y2.7992  
G00 Z2.5400  
G00 X27.6842 Y3.7100  
G01 Z-0.1778 F254   
G01 X27.6842 Y3.9099  F508   
G01 X27.6452 Y4.1058  
G01 X27.5688 Y4.2904  
G01 X27.4578 Y4.4565  
G01 X27.3165 Y4.5978  
G01 X27.1504 Y4.7088  
G01 X26.9658 Y4.7852  
G01 X26.7699 Y4.8242  
G01 X26.5700 Y4.8242  
G01 X26.3741 Y4.7852  
G01 X26.1895 Y4.7088  
G01 X26.0234 Y4.5978  
G01 X25.8821 Y4.4565  
G01 X25.7711 Y4.2904  
G01 X25.6947 Y4.1058  
G01 X25.6557 Y3.9099  
G01 X25.6557 Y3.7100  
G01 X25.6947 Y3.5141  
G01 X25.7711 Y3.3295  
G01 X25.8821 Y3.1634  
G01 X26.0234 Y3.0221  
G01 X26.1895 Y2.9111  
G01 X26.3741 Y2.8347  
G01 X26.5700 Y2.7957  
G01 X26.7699 Y2.7957  
G01 X26.9658 Y2.8347  
G01 X27.1504 Y2.9111  
G01 X27.3165 Y3.0221  
G01 X27.4578 Y3.1634  
G01 X27.5688 Y3.3295  
G01 X27.6452 Y3.5141  
G01 X27.6842 Y3.7100  
G00 Z2.5400  
G00 X28.5868 Y18.0816 
G01 Z-0.1778 F254   
G01 X28.1672 Y17.9078 F508   
G01 X27.7126 Y17.9078 
G01 X27.2930 Y18.0816 
G01 X26.9716 Y18.4030 
G01 X26.7978 Y18.8226 
G01 X26.7978 Y19.2772 
G01 X26.9716 Y19.6968 
G01 X27.2930 Y20.0182 
G01 X27.7126 Y20.1920 
G01 X28.1672 Y20.1920 
G01 X28.5868 Y20.0182 
G01 X28.9082 Y19.6968 
G01 X29.0820 Y19.2773 
G01 X29.0820 Y18.8226 
G01 X28.9082 Y18.4030 
G01 X28.5868 Y18.0816 
G00 Z2.5400  
G00 X28.9042 Y18.9549 
G01 Z-0.1778 F254   
G01 X28.9042 Y19.1450 F508   
G01 X28.8671 Y19.3312 
G01 X28.7945 Y19.5067 
G01 X28.6889 Y19.6646 
G01 X28.5546 Y19.7989 
G01 X28.3967 Y19.9045 
G01 X28.2212 Y19.9771 
G01 X28.0350 Y20.0142 
G01 X27.8449 Y20.0142 
G01 X27.6587 Y19.9771 
G01 X27.4832 Y19.9045 
G01 X27.3253 Y19.7989 
G01 X27.1910 Y19.6646 
G01 X27.0854 Y19.5067 
G01 X27.0128 Y19.3312 
G01 X26.9757 Y19.1450 
G01 X26.9757 Y18.9549 
G01 X27.0128 Y18.7687 
G01 X27.0854 Y18.5932 
G01 X27.1910 Y18.4353 
G01 X27.3253 Y18.3010 
G01 X27.4832 Y18.1954 
G01 X27.6587 Y18.1228 
G01 X27.8449 Y18.0857 
G01 X28.0350 Y18.0857 
G01 X28.2212 Y18.1228 
G01 X28.3967 Y18.1954 
G01 X28.5546 Y18.3010 
G01 X28.6889 Y18.4353 
G01 X28.7945 Y18.5932 
G01 X28.8671 Y18.7687 
G01 X28.9042 Y18.9549 
G00 Z2.5400  
G00 X41.5034 Y18.2983 
G01 Z-0.1778 F254   
G01 X41.4616 Y18.2259 F508   
G01 X41.4400 Y18.1452 
G01 X41.4400 Y18.0615 
G01 X41.4400 Y14.8746 
G01 X41.4616 Y14.7939 
G01 X41.5034 Y14.7215 
G01 X41.5625 Y14.6624 
G01 X41.6082 Y14.6168 
G01 X41.7820 Y14.1972 
G01 X41.7820 Y13.7426 
G01 X41.6082 Y13.3230 
G01 X41.5034 Y13.2183 
G01 X41.4616 Y13.1459 
G01 X41.4400 Y13.0652 
G01 X41.4400 Y12.9815 
G01 X41.4400 Y5.5010  
G01 X41.4616 Y5.4203  
G01 X41.5034 Y5.3479  
G01 X41.5625 Y5.2888  
G01 X41.7266 Y5.1248  
G01 X41.7858 Y5.0654  
G01 X41.8582 Y5.0236  
G01 X41.9163 Y5.0081  
G01 X41.9388 Y5.0020  
G01 X42.0225 Y5.0020  
G01 X42.1472 Y5.0020  
G01 X42.5852 Y4.8206  
G01 X42.9206 Y4.4852  
G01 X43.1020 Y4.0472  
G01 X43.1020 Y3.5726  
G01 X42.9206 Y3.1346  
G01 X42.5852 Y2.7992  
G01 X42.1472 Y2.6178  
G01 X41.6726 Y2.6178  
G01 X41.2346 Y2.7992  
G01 X40.8992 Y3.1346  
G01 X40.7178 Y3.5726  
G01 X40.7178 Y3.7809  
G01 X40.6962 Y3.8616  
G01 X40.6544 Y3.9340  
G01 X40.5953 Y3.9931  
G01 X40.2018 Y4.3865  
G01 X39.9615 Y4.6267  
G01 X39.8398 Y4.9208  
G01 X39.8398 Y13.0652 
G01 X39.8182 Y13.1459 
G01 X39.7764 Y13.2183 
G01 X39.7173 Y13.2774 
G01 X39.6716 Y13.3230 
G01 X39.4978 Y13.7426 
G01 X39.4978 Y14.1972 
G01 X39.6716 Y14.6168 
G01 X39.7764 Y14.7215 
G01 X39.8182 Y14.7939 
G01 X39.8398 Y14.8746 
G01 X39.8398 Y14.9583 
G01 X39.8398 Y16.1096 
G01 X39.8425 Y16.1301 
G01 X39.8398 Y16.1507 
G01 X39.8398 Y16.1720 
G01 X39.8343 Y16.1925 
G01 X39.8316 Y16.2131 
G01 X39.8236 Y16.2321 
G01 X39.8182 Y16.2527 
G01 X39.8075 Y16.2712 
G01 X39.7996 Y16.2903 
G01 X39.7870 Y16.3066 
G01 X39.7764 Y16.3251 
G01 X39.7612 Y16.3402 
G01 X39.7487 Y16.3566 
G01 X39.7323 Y16.3691 
G01 X39.7173 Y16.3842 
G01 X39.6989 Y16.3948 
G01 X39.6824 Y16.4075 
G01 X39.6632 Y16.4154 
G01 X39.6449 Y16.4260 
G01 X39.6242 Y16.4315 
G01 X39.6052 Y16.4394 
G01 X39.5848 Y16.4420 
G01 X39.5642 Y16.4476 
G01 X39.5429 Y16.4476 
G01 X39.5224 Y16.4503 
G01 X39.5018 Y16.4476 
G01 X39.4805 Y16.4476 
G01 X39.4600 Y16.4421 
G01 X39.4394 Y16.4394 
G01 X39.4204 Y16.4314 
G01 X39.3998 Y16.4260 
G01 X39.3813 Y16.4153 
G01 X39.3622 Y16.4074 
G01 X39.3459 Y16.3948 
G01 X39.3274 Y16.3842 
G01 X39.3123 Y16.3690 
G01 X39.2959 Y16.3565 
G01 X39.2834 Y16.3401 
G01 X39.2683 Y16.3251 
G01 X39.2577 Y16.3067 
G01 X39.2450 Y16.2902 
G01 X39.2371 Y16.2709 
G01 X39.2265 Y16.2527 
G01 X39.2211 Y16.2323 
G01 X39.0682 Y15.8630 
G01 X38.7468 Y15.5416 
G01 X38.3272 Y15.3678 
G01 X37.8726 Y15.3678 
G01 X37.4530 Y15.5416 
G01 X37.1316 Y15.8630 
G01 X36.9578 Y16.2826 
G01 X36.9578 Y16.7372 
G01 X37.1316 Y17.1568 
G01 X37.4530 Y17.4782 
G01 X37.8726 Y17.6520 
G01 X38.3272 Y17.6520 
G01 X38.7468 Y17.4782 
G01 X39.0682 Y17.1567 
G01 X39.2211 Y16.7875 
G01 X39.2265 Y16.7671 
G01 X39.2370 Y16.7489 
G01 X39.2450 Y16.7296 
G01 X39.2577 Y16.7131 
G01 X39.2683 Y16.6947 
G01 X39.2834 Y16.6797 
G01 X39.2959 Y16.6633 
G01 X39.3123 Y16.6508 
G01 X39.3274 Y16.6356 
G01 X39.3459 Y16.6250 
G01 X39.3622 Y16.6124 
G01 X39.3813 Y16.6045 
G01 X39.3998 Y16.5938 
G01 X39.4204 Y16.5883 
G01 X39.4394 Y16.5804 
G01 X39.4600 Y16.5777 
G01 X39.4805 Y16.5722 
G01 X39.5018 Y16.5722 
G01 X39.5224 Y16.5695 
G01 X39.5429 Y16.5722 
G01 X39.5642 Y16.5722 
G01 X39.5848 Y16.5777 
G01 X39.6052 Y16.5804 
G01 X39.6242 Y16.5883 
G01 X39.6449 Y16.5938 
G01 X39.6632 Y16.6044 
G01 X39.6824 Y16.6123 
G01 X39.6989 Y16.6250 
G01 X39.7173 Y16.6356 
G01 X39.7323 Y16.6507 
G01 X39.7487 Y16.6632 
G01 X39.7612 Y16.6796 
G01 X39.7764 Y16.6947 
G01 X39.7870 Y16.7132 
G01 X39.7996 Y16.7295 
G01 X39.8075 Y16.7486 
G01 X39.8182 Y16.7671 
G01 X39.8237 Y16.7877 
G01 X39.8316 Y16.8067 
G01 X39.8343 Y16.8273 
G01 X39.8398 Y16.8478 
G01 X39.8398 Y16.8691 
G01 X39.8425 Y16.8897 
G01 X39.8398 Y16.9102 
G01 X39.8398 Y18.1452 
G01 X39.8182 Y18.2259 
G01 X39.7764 Y18.2983 
G01 X39.7173 Y18.3574 
G01 X39.6716 Y18.4030 
G01 X39.4978 Y18.8226 
G01 X39.4978 Y19.2772 
G01 X39.6716 Y19.6968 
G01 X39.9930 Y20.0182 
G01 X40.4126 Y20.1920 
G01 X40.8672 Y20.1920 
G01 X41.2868 Y20.0182 
G01 X41.6082 Y19.6968 
G01 X41.7820 Y19.2772 
G01 X41.7820 Y18.8227 
G01 X41.6082 Y18.4030 
G01 X41.5034 Y18.2983 
G00 Z2.5400  
G00 X39.0642 Y16.4149 
G01 Z-0.1778 F254   
G01 X39.0642 Y16.6050 F508   
G01 X39.0271 Y16.7912 
G01 X38.9545 Y16.9667 
G01 X38.8489 Y17.1246 
G01 X38.7146 Y17.2589 
G01 X38.5567 Y17.3645 
G01 X38.3812 Y17.4371 
G01 X38.1950 Y17.4742 
G01 X38.0049 Y17.4742 
G01 X37.8187 Y17.4371 
G01 X37.6432 Y17.3645 
G01 X37.4853 Y17.2589 
G01 X37.3510 Y17.1246 
G01 X37.2454 Y16.9667 
G01 X37.1728 Y16.7912 
G01 X37.1357 Y16.6050 
G01 X37.1357 Y16.4149 
G01 X37.1728 Y16.2287 
G01 X37.2454 Y16.0532 
G01 X37.3510 Y15.8953 
G01 X37.4853 Y15.7610 
G01 X37.6432 Y15.6554 
G01 X37.8187 Y15.5828 
G01 X38.0049 Y15.5457 
G01 X38.1950 Y15.5457 
G01 X38.3812 Y15.5828 
G01 X38.5567 Y15.6554 
G01 X38.7146 Y15.7610 
G01 X38.8489 Y15.8953 
G01 X38.9545 Y16.0532 
G01 X39.0271 Y16.2287 
G01 X39.0642 Y16.4149 
G00 Z2.5400  
G00 X41.6042 Y18.9549 
G01 Z-0.1778 F254   
G01 X41.6042 Y19.1450 F508   
G01 X41.5671 Y19.3312 
G01 X41.4945 Y19.5067 
G01 X41.3889 Y19.6646 
G01 X41.2546 Y19.7989 
G01 X41.0967 Y19.9045 
G01 X40.9212 Y19.9771 
G01 X40.7350 Y20.0142 
G01 X40.5449 Y20.0142 
G01 X40.3587 Y19.9771 
G01 X40.1832 Y19.9045 
G01 X40.0253 Y19.7989 
G01 X39.8910 Y19.6646 
G01 X39.7854 Y19.5067 
G01 X39.7128 Y19.3312 
G01 X39.6757 Y19.1450 
G01 X39.6757 Y18.9549 
G01 X39.7128 Y18.7687 
G01 X39.7854 Y18.5932 
G01 X39.8910 Y18.4353 
G01 X40.0177 Y18.3087 
G01 X40.0177 Y14.7112 
G01 X39.8910 Y14.5846 
G01 X39.7854 Y14.4267 
G01 X39.7128 Y14.2512 
G01 X39.6757 Y14.0650 
G01 X39.6757 Y13.8749 
G01 X39.7128 Y13.6887 
G01 X39.7854 Y13.5132 
G01 X39.8910 Y13.3553 
G01 X40.0177 Y13.2287 
G01 X40.0177 Y5.0186  
G01 X40.0416 Y4.8984  
G01 X40.0885 Y4.7852  
G01 X40.1566 Y4.6833  
G01 X40.2433 Y4.5966  
G01 X40.9015 Y3.9385  
G01 X40.8957 Y3.9099  
G01 X40.8957 Y3.7100  
G01 X40.9347 Y3.5141  
G01 X41.0111 Y3.3295  
G01 X41.1221 Y3.1634  
G01 X41.2634 Y3.0221  
G01 X41.4295 Y2.9111  
G01 X41.6141 Y2.8347  
G01 X41.8100 Y2.7957  
G01 X42.0099 Y2.7957  
G01 X42.2058 Y2.8347  
G01 X42.3904 Y2.9111  
G01 X42.5565 Y3.0221  
G01 X42.6978 Y3.1634  
G01 X42.8088 Y3.3295  
G01 X42.8852 Y3.5141  
G01 X42.9242 Y3.7100  
G01 X42.9242 Y3.9099  
G01 X42.8852 Y4.1058  
G01 X42.8088 Y4.2904  
G01 X42.6978 Y4.4565  
G01 X42.5565 Y4.5978  
G01 X42.3904 Y4.7088  
G01 X42.2058 Y4.7852  
G01 X42.0099 Y4.8242  
G01 X41.8100 Y4.8242  
G01 X41.7814 Y4.8184  
G01 X41.2622 Y5.3377  
G01 X41.2622 Y13.2287 
G01 X41.3889 Y13.3553 
G01 X41.4945 Y13.5132 
G01 X41.5671 Y13.6887 
G01 X41.6042 Y13.8749 
G01 X41.6042 Y14.0650 
G01 X41.5671 Y14.2512 
G01 X41.4945 Y14.4267 
G01 X41.3889 Y14.5846 
G01 X41.2622 Y14.7112 
G01 X41.2622 Y18.3087 
G01 X41.3889 Y18.4353 
G01 X41.4945 Y18.5932 
G01 X41.5671 Y18.7687 
G01 X41.6042 Y18.9549 
G00 Z2.5400  
G00 X38.7468 Y25.7016 
G01 Z-0.1778 F254   
G01 X38.3272 Y25.5278 F508   
G01 X37.8726 Y25.5278 
G01 X37.4530 Y25.7016 
G01 X37.1316 Y26.0230 
G01 X36.9578 Y26.4426 
G01 X36.9578 Y26.8972 
G01 X37.1316 Y27.3168 
G01 X37.4530 Y27.6382 
G01 X37.8726 Y27.8120 
G01 X38.3272 Y27.8120 
G01 X38.7468 Y27.6382 
G01 X39.0682 Y27.3168 
G01 X39.2420 Y26.8972 
G01 X39.2420 Y26.4427 
G01 X39.0682 Y26.0230 
G01 X38.7468 Y25.7016 
G00 Z2.5400  
G00 X39.0642 Y26.5749 
G01 Z-0.1778 F254   
G01 X39.0642 Y26.7650 F508   
G01 X39.0271 Y26.9512 
G01 X38.9545 Y27.1267 
G01 X38.8489 Y27.2846 
G01 X38.7146 Y27.4189 
G01 X38.5567 Y27.5245 
G01 X38.3812 Y27.5971 
G01 X38.1950 Y27.6342 
G01 X38.0049 Y27.6342 
G01 X37.8187 Y27.5971 
G01 X37.6432 Y27.5245 
G01 X37.4853 Y27.4189 
G01 X37.3510 Y27.2846 
G01 X37.2454 Y27.1267 
G01 X37.1728 Y26.9512 
G01 X37.1357 Y26.7650 
G01 X37.1357 Y26.5749 
G01 X37.1728 Y26.3887 
G01 X37.2454 Y26.2132 
G01 X37.3510 Y26.0553 
G01 X37.4853 Y25.9210 
G01 X37.6432 Y25.8154 
G01 X37.8187 Y25.7428 
G01 X38.0049 Y25.7057 
G01 X38.1950 Y25.7057 
G01 X38.3812 Y25.7428 
G01 X38.5567 Y25.8154 
G01 X38.7146 Y25.9210 
G01 X38.8489 Y26.0553 
G01 X38.9545 Y26.2132 
G01 X39.0271 Y26.3887 
G01 X39.0642 Y26.5749 
G00 Z2.5400  
G00 X2.2767  Y20.7925 
G01 Z-0.1778 F254   
G01 X2.3601  Y20.9074 F508   
G01 X2.4605  Y21.0077 
G01 X2.5753  Y21.0911 
G01 X2.7016  Y21.1555 
G01 X2.8121  Y21.1914 
G01 X2.8245  Y21.1930 
G01 X2.8509  Y21.2040 
G01 X2.8794  Y21.2132 
G01 X2.8903  Y21.2203 
G01 X2.9017  Y21.2250 
G01 X2.9245  Y21.2425 
G01 X2.9495  Y21.2587 
G01 X2.9580  Y21.2682 
G01 X2.9680  Y21.2758 
G01 X2.9860  Y21.2993 
G01 X3.0054  Y21.3208 
G01 X3.0110  Y21.3319 
G01 X3.0189  Y21.3421 
G01 X3.0300  Y21.3692 
G01 X3.0434  Y21.3953 
G01 X3.0461  Y21.4080 
G01 X3.0508  Y21.4194 
G01 X3.0545  Y21.4481 
G01 X3.0607  Y21.4770 
G01 X3.0600  Y21.4897 
G01 X3.0617  Y21.5022 
G01 X3.0579  Y21.5310 
G01 X3.0564  Y21.5606 
G01 X3.0524  Y21.5728 
G01 X3.0508  Y21.5852 
G01 X3.0398  Y21.6116 
G01 X3.0306  Y21.6401 
G01 X3.0235  Y21.6510 
G01 X3.0188  Y21.6624 
G01 X3.0013  Y21.6852 
G01 X2.9851  Y21.7102 
G01 X2.9756  Y21.7187 
G01 X2.9680  Y21.7287 
G01 X2.9445  Y21.7467 
G01 X2.9230  Y21.7661 
G01 X2.9119  Y21.7717 
G01 X2.9017  Y21.7796 
G01 X2.8743  Y21.7909 
G01 X2.8485  Y21.8041 
G01 X2.8362  Y21.8067 
G01 X2.4508  Y21.9662 
G01 X2.1542  Y22.2628 
G01 X1.9938  Y22.6501 
G01 X1.9938  Y23.0697 
G01 X2.1542  Y23.4570 
G01 X2.4508  Y23.7536 
G01 X2.6128  Y23.8207 
G01 X2.6831  Y23.8498 
G01 X2.6901  Y23.8527 
G01 X2.7564  Y23.9035 
G01 X2.8073  Y23.9698 
G01 X2.8169  Y23.9931 
G01 X2.8393  Y24.0471 
G01 X2.8487  Y24.1196 
G01 X2.8501  Y24.1299 
G01 X2.8401  Y24.2059 
G01 X2.8392  Y24.2129 
G01 X2.8072  Y24.2901 
G01 X2.7564  Y24.3564 
G01 X2.6901  Y24.4073 
G01 X2.6588  Y24.4202 
G01 X2.4507  Y24.5063 
G01 X2.1542  Y24.8028 
G01 X1.9938  Y25.1901 
G01 X1.9938  Y25.6097 
G01 X2.1542  Y25.9970 
G01 X2.4508  Y26.2936 
G01 X2.8381  Y26.4540 
G01 X4.7817  Y26.4540 
G01 X5.1690  Y26.2936 
G01 X5.4656  Y25.9970 
G01 X5.6260  Y25.6097 
G01 X5.6260  Y25.1902 
G01 X5.4656  Y24.8028 
G01 X5.1691  Y24.5063 
G01 X4.9593  Y24.4195 
G01 X4.9297  Y24.4073 
G01 X4.8634  Y24.3564 
G01 X4.8133  Y24.2910 
G01 X4.7806  Y24.2129 
G01 X4.7697  Y24.1301 
G01 X4.7709  Y24.1212 
G01 X4.7805  Y24.0471 
G01 X4.8034  Y23.9918 
G01 X4.8125  Y23.9698 
G01 X4.8634  Y23.9035 
G01 X4.9288  Y23.8534 
G01 X5.0069  Y23.8207 
G01 X5.1689  Y23.7536 
G01 X5.4656  Y23.4570 
G01 X5.6260  Y23.0697 
G01 X5.6260  Y22.6501 
G01 X5.4656  Y22.2628 
G01 X5.1689  Y21.9662 
G01 X4.7836  Y21.8067 
G01 X4.7713  Y21.8041 
G01 X4.7456  Y21.7909 
G01 X4.7181  Y21.7796 
G01 X4.7079  Y21.7717 
G01 X4.6968  Y21.7661 
G01 X4.6753  Y21.7467 
G01 X4.6518  Y21.7287 
G01 X4.6442  Y21.7187 
G01 X4.6347  Y21.7102 
G01 X4.6185  Y21.6852 
G01 X4.6010  Y21.6624 
G01 X4.5963  Y21.6510 
G01 X4.5892  Y21.6401 
G01 X4.5800  Y21.6117 
G01 X4.5690  Y21.5852 
G01 X4.5674  Y21.5728 
G01 X4.5634  Y21.5606 
G01 X4.5619  Y21.5310 
G01 X4.5581  Y21.5022 
G01 X4.5598  Y21.4897 
G01 X4.5591  Y21.4770 
G01 X4.5652  Y21.4481 
G01 X4.5690  Y21.4194 
G01 X4.5737  Y21.4080 
G01 X4.5764  Y21.3953 
G01 X4.5898  Y21.3692 
G01 X4.6009  Y21.3421 
G01 X4.6088  Y21.3319 
G01 X4.6144  Y21.3208 
G01 X4.6338  Y21.2993 
G01 X4.6518  Y21.2758 
G01 X4.6618  Y21.2682 
G01 X4.6703  Y21.2587 
G01 X4.6953  Y21.2425 
G01 X4.7181  Y21.2250 
G01 X4.7295  Y21.2203 
G01 X4.7404  Y21.2132 
G01 X4.7689  Y21.2040 
G01 X4.7953  Y21.1930 
G01 X4.8077  Y21.1914 
G01 X4.9182  Y21.1555 
G01 X5.0445  Y21.0911 
G01 X5.1594  Y21.0077 
G01 X5.2597  Y20.9073 
G01 X5.3431  Y20.7925 
G01 X5.3963  Y20.6882 
G01 X5.3678  Y20.6882 
G01 X5.3485  Y20.7350 
G01 X5.2526  Y20.8785 
G01 X5.1305  Y21.0006 
G01 X4.9870  Y21.0965 
G01 X4.8276  Y21.1625 
G01 X4.6583  Y21.1962 
G01 X2.9616  Y21.1962 
G01 X2.7923  Y21.1625 
G01 X2.6329  Y21.0965 
G01 X2.4894  Y21.0006 
G01 X2.3673  Y20.8785 
G01 X2.2714  Y20.7350 
G01 X2.2521  Y20.6882 
G01 X2.2235  Y20.6882 
G01 X2.2767  Y20.7925 
G00 Z2.5400  
G00 X4.6583  Y23.7362 
G01 Z-0.1778 F254   
G01 X2.9616  Y23.7362 F508   
G01 X2.7923  Y23.7025 
G01 X2.6329  Y23.6365 
G01 X2.4894  Y23.5406 
G01 X2.3673  Y23.4185 
G01 X2.2714  Y23.2750 
G01 X2.2054  Y23.1156 
G01 X2.1717  Y22.9463 
G01 X2.1717  Y22.7736 
G01 X2.2054  Y22.6043 
G01 X2.2714  Y22.4449 
G01 X2.3673  Y22.3014 
G01 X2.4894  Y22.1793 
G01 X2.6329  Y22.0834 
G01 X2.7923  Y22.0174 
G01 X2.9616  Y21.9837 
G01 X4.6583  Y21.9837 
G01 X4.8276  Y22.0174 
G01 X4.9870  Y22.0834 
G01 X5.1305  Y22.1793 
G01 X5.2526  Y22.3014 
G01 X5.3485  Y22.4449 
G01 X5.4145  Y22.6043 
G01 X5.4482  Y22.7736 
G01 X5.4482  Y22.9463 
G01 X5.4145  Y23.1156 
G01 X5.3485  Y23.2750 
G01 X5.2526  Y23.4185 
G01 X5.1305  Y23.5406 
G01 X4.9870  Y23.6365 
G01 X4.8276  Y23.7025 
G01 X4.6583  Y23.7362 
G00 Z2.5400  
G00 X4.6583  Y26.2762 
G01 Z-0.1778 F254   
G01 X2.9616  Y26.2762 F508   
G01 X2.7923  Y26.2425 
G01 X2.6329  Y26.1765 
G01 X2.4894  Y26.0806 
G01 X2.3673  Y25.9585 
G01 X2.2714  Y25.8150 
G01 X2.2054  Y25.6556 
G01 X2.1717  Y25.4863 
G01 X2.1717  Y25.3136 
G01 X2.2054  Y25.1443 
G01 X2.2714  Y24.9849 
G01 X2.3673  Y24.8414 
G01 X2.4894  Y24.7193 
G01 X2.6329  Y24.6234 
G01 X2.7923  Y24.5574 
G01 X2.9616  Y24.5237 
G01 X4.6583  Y24.5237 
G01 X4.8276  Y24.5574 
G01 X4.9870  Y24.6234 
G01 X5.1305  Y24.7193 
G01 X5.2526  Y24.8414 
G01 X5.3485  Y24.9849 
G01 X5.4145  Y25.1443 
G01 X5.4482  Y25.3136 
G01 X5.4482  Y25.4863 
G01 X5.4145  Y25.6556 
G01 X5.3485  Y25.8150 
G01 X5.2526  Y25.9585 
G01 X5.1305  Y26.0806 
G01 X4.9870  Y26.1765 
G01 X4.8276  Y26.2425 
G01 X4.6583  Y26.2762 
G00 Z2.5400  
G00 X18.6263 Y10.9110 
G01 Z-0.1778 F254   
G01 X18.5349 Y10.7853 F508   
G01 X18.4245 Y10.6749 
G01 X18.2988 Y10.5835 
G01 X18.1692 Y10.5174 
G01 X18.1692 Y10.5475 
G01 X18.2367 Y10.5754 
G01 X18.3946 Y10.6810 
G01 X18.5289 Y10.8153 
G01 X18.6345 Y10.9732 
G01 X18.6623 Y11.0405 
G01 X18.6923 Y11.0405 
G01 X18.6263 Y10.9110 
G00 Z2.5400  
G00 X18.5350 Y12.0745 
G01 Z-0.1778 F254   
G01 X18.6263 Y11.9488 F508   
G01 X18.6924 Y11.8192 
G01 X18.6624 Y11.8192 
G01 X18.6345 Y11.8867 
G01 X18.5289 Y12.0446 
G01 X18.3946 Y12.1789 
G01 X18.2367 Y12.2845 
G01 X18.1692 Y12.3124 
G01 X18.1692 Y12.3424 
G01 X18.2988 Y12.2763 
G01 X18.4245 Y12.1850 
G01 X18.5350 Y12.0745 
G00 Z2.5400  
G00 X5.1594  Y19.6321 
G01 Z-0.1778 F254   
G01 X5.0445  Y19.5487 F508   
G01 X4.9181  Y19.4842 
G01 X4.7828  Y19.4403 
G01 X4.6428  Y19.4182 
G01 X4.1782  Y19.4182 
G01 X4.1782  Y19.4437 
G01 X4.6583  Y19.4437 
G01 X4.8276  Y19.4774 
G01 X4.9870  Y19.5434 
G01 X5.1305  Y19.6393 
G01 X5.2526  Y19.7614 
G01 X5.3485  Y19.9049 
G01 X5.3678  Y19.9515 
G01 X5.3963  Y19.9515 
G01 X5.3431  Y19.8473 
G01 X5.2597  Y19.7324 
G01 X5.1594  Y19.6321 
G00 Z2.5400  
G00 X2.9770  Y19.4182 
G01 Z-0.1778 F254   
G01 X2.8370  Y19.4403 F508   
G01 X2.7017  Y19.4842 
G01 X2.5753  Y19.5487 
G01 X2.4604  Y19.6321 
G01 X2.3602  Y19.7323 
G01 X2.2767  Y19.8473 
G01 X2.2236  Y19.9515 
G01 X2.2521  Y19.9515 
G01 X2.2714  Y19.9049 
G01 X2.3673  Y19.7614 
G01 X2.4894  Y19.6393 
G01 X2.6329  Y19.5434 
G01 X2.7923  Y19.4774 
G01 X2.9616  Y19.4437 
G01 X3.4415  Y19.4437 
G01 X3.4415  Y19.4182 
G01 X2.9770  Y19.4182 
G00 Z2.5400  
G00 X94.3606 Y87.5398 
G01 Z-0.1778 F254   
G01 X94.4567 Y87.6721 F508   
G01 X94.5727 Y87.7881 
G01 X94.7050 Y87.8842 
G01 X94.8355 Y87.9507 
G01 X94.8355 Y87.9211 
G01 X94.7695 Y87.8938 
G01 X94.6034 Y87.7828 
G01 X94.4621 Y87.6415 
G01 X94.3511 Y87.4754 
G01 X94.3237 Y87.4092 
G01 X94.2940 Y87.4092 
G01 X94.3606 Y87.5398 
G00 Z2.5400  
G00 X94.7050 Y86.1056 
G01 Z-0.1778 F254   
G01 X94.5727 Y86.2017 F508   
G01 X94.4567 Y86.3177 
G01 X94.3605 Y86.4500 
G01 X94.2940 Y86.5805 
G01 X94.3238 Y86.5805 
G01 X94.3511 Y86.5145 
G01 X94.4621 Y86.3484 
G01 X94.6034 Y86.2071 
G01 X94.7695 Y86.0961 
G01 X94.8355 Y86.0688 
G01 X94.8355 Y86.0390 
G01 X94.7050 Y86.1056 
G00 Z2.5400  
G00 X4.6992  Y82.6400 
G01 Z-0.1778 F254   
G01 X4.6031  Y82.5077 F508   
G01 X4.4871  Y82.3917 
G01 X4.3548  Y82.2956 
G01 X4.2242  Y82.2290 
G01 X4.2242  Y82.2587 
G01 X4.2904  Y82.2861 
G01 X4.4565  Y82.3971 
G01 X4.5978  Y82.5384 
G01 X4.7088  Y82.7045 
G01 X4.7361  Y82.7705 
G01 X4.7657  Y82.7705 
G01 X4.6992  Y82.6400 
G00 Z2.5400  
G00 X2.9206  Y83.7298 
G01 Z-0.1778 F254   
G01 X3.0167  Y83.8621 F508   
G01 X3.1327  Y83.9781 
G01 X3.2650  Y84.0743 
G01 X3.3955  Y84.1408 
G01 X3.3955  Y84.1111 
G01 X3.3295  Y84.0838 
G01 X3.1634  Y83.9728 
G01 X3.0221  Y83.8315 
G01 X2.9111  Y83.6654 
G01 X2.8837  Y83.5992 
G01 X2.8540  Y83.5992 
G01 X2.9206  Y83.7298 
G00 Z2.5400  
G00 X3.0167  Y82.5077 
G01 Z-0.1778 F254   
G01 X2.9206  Y82.6400 F508   
G01 X2.8541  Y82.7705 
G01 X2.8838  Y82.7705 
G01 X2.9111  Y82.7045 
G01 X3.0221  Y82.5384 
G01 X3.1634  Y82.3971 
G01 X3.3295  Y82.2861 
G01 X3.3955  Y82.2588 
G01 X3.3955  Y82.2291 
G01 X3.2650  Y82.2956 
G01 X3.1327  Y82.3917 
G01 X3.0167  Y82.5077 
G00 Z2.5400  
G00 X4.3548  Y84.0742 
G01 Z-0.1778 F254   
G01 X4.4871  Y83.9781 F508   
G01 X4.6031  Y83.8621 
G01 X4.6992  Y83.7298 
G01 X4.7658  Y83.5992 
G01 X4.7361  Y83.5992 
G01 X4.7088  Y83.6654 
G01 X4.5978  Y83.8315 
G01 X4.4565  Y83.9728 
G01 X4.2904  Y84.0838 
G01 X4.2242  Y84.1112 
G01 X4.2242  Y84.1408 
G01 X4.3548  Y84.0742 
G00 Z2.5400  
G00 X13.6270 Y42.0993 
G01 Z-0.1778 F254   
G01 X13.7719 Y42.4494 F508   
G01 X14.0400 Y42.7175 
G01 X14.3901 Y42.8624 
G01 X16.0898 Y42.8624 
G01 X16.4398 Y42.7175 
G01 X16.7079 Y42.4494 
G01 X16.8528 Y42.0993 
G01 X16.8528 Y41.7205 
G01 X16.7079 Y41.3704 
G01 X16.4398 Y41.1023 
G01 X16.0897 Y40.9574 
G01 X15.3613 Y40.9574 
G01 X14.3901 Y40.9574 
G01 X14.0400 Y41.1023 
G01 X13.7720 Y41.3703 
G01 X13.6270 Y41.7205 
G01 X13.6270 Y42.0993 
G00 Z2.5400  
G00 X15.9767 Y42.6846 
G01 Z-0.1778 F254   
G01 X14.5032 Y42.6846 F508   
G01 X14.3536 Y42.6548 
G01 X14.2126 Y42.5964 
G01 X14.0857 Y42.5117 
G01 X13.9778 Y42.4038 
G01 X13.8931 Y42.2769 
G01 X13.8347 Y42.1359 
G01 X13.8049 Y41.9863 
G01 X13.8049 Y41.8336 
G01 X13.8347 Y41.6840 
G01 X13.8931 Y41.5430 
G01 X13.9778 Y41.4161 
G01 X14.0857 Y41.3082 
G01 X14.2126 Y41.2235 
G01 X14.3536 Y41.1651 
G01 X14.5032 Y41.1353 
G01 X15.9767 Y41.1353 
G01 X16.1263 Y41.1651 
G01 X16.2673 Y41.2235 
G01 X16.3942 Y41.3082 
G01 X16.5021 Y41.4161 
G01 X16.5868 Y41.5430 
G01 X16.6452 Y41.6840 
G01 X16.6750 Y41.8336 
G01 X16.6750 Y41.9863 
G01 X16.6452 Y42.1359 
G01 X16.5868 Y42.2769 
G01 X16.5021 Y42.4038 
G01 X16.3942 Y42.5117 
G01 X16.2673 Y42.5964 
G01 X16.1263 Y42.6548 
G01 X15.9767 Y42.6846 
G00 Z2.5400  
G00 X16.8528 Y54.7993 
G01 Z-0.1778 F254   
G01 X16.8528 Y54.4205 F508   
G01 X16.7079 Y54.0704 
G01 X16.4398 Y53.8023 
G01 X16.0897 Y53.6574 
G01 X14.3901 Y53.6574 
G01 X14.0400 Y53.8023 
G01 X13.7719 Y54.0704 
G01 X13.6270 Y54.4205 
G01 X13.6270 Y54.7993 
G01 X13.7719 Y55.1494 
G01 X14.0399 Y55.4174 
G01 X14.3901 Y55.5624 
G01 X16.0898 Y55.5624 
G01 X16.4398 Y55.4175 
G01 X16.7079 Y55.1494 
G01 X16.8528 Y54.7993 
G00 Z2.5400  
G00 X15.9767 Y55.3846 
G01 Z-0.1778 F254   
G01 X14.5032 Y55.3846 F508   
G01 X14.3536 Y55.3548 
G01 X14.2126 Y55.2964 
G01 X14.0857 Y55.2117 
G01 X13.9778 Y55.1038 
G01 X13.8931 Y54.9769 
G01 X13.8347 Y54.8359 
G01 X13.8049 Y54.6863 
G01 X13.8049 Y54.5336 
G01 X13.8347 Y54.3840 
G01 X13.8931 Y54.2430 
G01 X13.9778 Y54.1161 
G01 X14.0857 Y54.0082 
G01 X14.2126 Y53.9235 
G01 X14.3536 Y53.8651 
G01 X14.5032 Y53.8353 
G01 X15.9767 Y53.8353 
G01 X16.1263 Y53.8651 
G01 X16.2673 Y53.9235 
G01 X16.3942 Y54.0082 
G01 X16.5021 Y54.1161 
G01 X16.5868 Y54.2430 
G01 X16.6452 Y54.3840 
G01 X16.6750 Y54.5336 
G01 X16.6750 Y54.6863 
G01 X16.6452 Y54.8359 
G01 X16.5868 Y54.9769 
G01 X16.5021 Y55.1038 
G01 X16.3942 Y55.2117 
G01 X16.2673 Y55.2964 
G01 X16.1263 Y55.3548 
G01 X15.9767 Y55.3846 
G00 Z2.5400  
G00 X13.7719 Y50.0694 
G01 Z-0.1778 F254   
G01 X14.0400 Y50.3375 F508   
G01 X14.3901 Y50.4824 
G01 X16.0897 Y50.4824 
G01 X16.4398 Y50.3375 
G01 X16.7079 Y50.0694 
G01 X16.8528 Y49.7193 
G01 X16.8528 Y49.3405 
G01 X16.7079 Y48.9904 
G01 X16.4398 Y48.7223 
G01 X16.0897 Y48.5774 
G01 X14.3901 Y48.5774 
G01 X14.0400 Y48.7223 
G01 X13.7719 Y48.9904 
G01 X13.6270 Y49.3405 
G01 X13.6270 Y49.7193 
G01 X13.7719 Y50.0694 
G00 Z2.5400  
G00 X15.9767 Y50.3046 
G01 Z-0.1778 F254   
G01 X14.5032 Y50.3046 F508   
G01 X14.3536 Y50.2748 
G01 X14.2126 Y50.2164 
G01 X14.0857 Y50.1317 
G01 X13.9778 Y50.0238 
G01 X13.8931 Y49.8969 
G01 X13.8347 Y49.7559 
G01 X13.8049 Y49.6063 
G01 X13.8049 Y49.4536 
G01 X13.8347 Y49.3040 
G01 X13.8931 Y49.1630 
G01 X13.9778 Y49.0361 
G01 X14.0857 Y48.9282 
G01 X14.2126 Y48.8435 
G01 X14.3536 Y48.7851 
G01 X14.5032 Y48.7553 
G01 X15.9767 Y48.7553 
G01 X16.1263 Y48.7851 
G01 X16.2673 Y48.8435 
G01 X16.3942 Y48.9282 
G01 X16.5021 Y49.0361 
G01 X16.5868 Y49.1630 
G01 X16.6452 Y49.3040 
G01 X16.6750 Y49.4536 
G01 X16.6750 Y49.6063 
G01 X16.6452 Y49.7559 
G01 X16.5868 Y49.8969 
G01 X16.5021 Y50.0238 
G01 X16.3942 Y50.1317 
G01 X16.2673 Y50.2164 
G01 X16.1263 Y50.2748 
G01 X15.9767 Y50.3046 
G00 Z2.5400  
G00 X54.8504 Y75.2474 
G01 Z-0.1778 F254   
G01 X54.2924 Y75.8054 F508   
G01 X54.2924 Y76.5944 
G01 X54.8504 Y77.1524 
G01 X55.6394 Y77.1524 
G01 X56.1974 Y76.5944 
G01 X56.1974 Y75.8054 
G01 X55.6394 Y75.2474 
G01 X54.8504 Y75.2474 
G00 Z2.5400  
G00 X56.0196 Y75.8791 
G01 Z-0.1778 F254   
G01 X56.0196 Y76.5208 F508   
G01 X55.5658 Y76.9746 
G01 X54.9241 Y76.9746 
G01 X54.4703 Y76.5208 
G01 X54.4703 Y75.8791 
G01 X54.9241 Y75.4253 
G01 X55.5658 Y75.4253 
G01 X56.0196 Y75.8791 
G00 Z2.5400  
G00 X93.5854 Y112.7124 
G01 Z-0.1778 F254   
G01 X93.0274 Y113.2704 F508   
G01 X93.0274 Y114.0594 
G01 X93.4212 Y114.4532 
G01 X93.4630 Y114.5256 
G01 X93.4846 Y114.6063 
G01 X93.4846 Y114.6900 
G01 X93.4846 Y118.4385 
G01 X93.4630 Y118.5192 
G01 X93.4212 Y118.5916 
G01 X93.3621 Y118.6507 
G01 X93.0274 Y118.9854 
G01 X93.0274 Y119.7744 
G01 X93.5854 Y120.3324 
G01 X94.3744 Y120.3324 
G01 X94.9324 Y119.7744 
G01 X94.9324 Y118.9854 
G01 X94.5386 Y118.5916 
G01 X94.4968 Y118.5192 
G01 X94.4752 Y118.4385 
G01 X94.4752 Y118.3548 
G01 X94.4752 Y114.6063 
G01 X94.4968 Y114.5256 
G01 X94.5386 Y114.4532 
G01 X94.5977 Y114.3941 
G01 X94.9324 Y114.0594 
G01 X94.9324 Y113.2704 
G01 X94.3744 Y112.7124 
G01 X93.5854 Y112.7124 
G00 Z2.5400  
G00 X94.7546 Y119.0591 
G01 Z-0.1778 F254   
G01 X94.7546 Y119.7008 F508   
G01 X94.3008 Y120.1546 
G01 X93.6591 Y120.1546 
G01 X93.2053 Y119.7008 
G01 X93.2053 Y119.0591 
G01 X93.6591 Y118.6053 
G01 X93.6625 Y118.6053 
G01 X93.6625 Y114.4396 
G01 X93.6591 Y114.4396 
G01 X93.2053 Y113.9858 
G01 X93.2053 Y113.3441 
G01 X93.6591 Y112.8903 
G01 X94.3008 Y112.8903 
G01 X94.7546 Y113.3441 
G01 X94.7546 Y113.9858 
G01 X94.3008 Y114.4396 
G01 X94.2974 Y114.4396 
G01 X94.2974 Y118.6053 
G01 X94.3008 Y118.6053 
G01 X94.7546 Y119.0591 
G00 Z2.5400  
G00 X74.5354 Y77.7874 
G01 Z-0.1778 F254   
G01 X73.9774 Y78.3454 F508   
G01 X73.9774 Y79.1344 
G01 X74.5354 Y79.6924 
G01 X75.3244 Y79.6924 
G01 X75.8824 Y79.1344 
G01 X75.8824 Y78.3454 
G01 X75.3244 Y77.7874 
G01 X74.5354 Y77.7874 
G00 Z2.5400  
G00 X75.7046 Y78.4191 
G01 Z-0.1778 F254   
G01 X75.7046 Y79.0608 F508   
G01 X75.2508 Y79.5146 
G01 X74.6091 Y79.5146 
G01 X74.1553 Y79.0608 
G01 X74.1553 Y78.4191 
G01 X74.6091 Y77.9653 
G01 X75.2508 Y77.9653 
G01 X75.7046 Y78.4191 
G00 Z2.5400  
G00 X94.1450 Y146.9886 
G01 Z-0.1778 F254   
G01 X93.6762 Y146.5198 F508   
G01 X93.6628 Y146.5198 
G01 X93.6628 Y146.5453 
G01 X93.6658 Y146.5453 
G01 X94.1196 Y146.9991 
G01 X94.1196 Y147.0019 
G01 X94.1450 Y147.0019 
G01 X94.1450 Y146.9886 
G00 Z2.5400  
G00 X92.5448 Y147.6512 
G01 Z-0.1778 F254   
G01 X93.0136 Y148.1200 F508   
G01 X93.0269 Y148.1200 
G01 X93.0269 Y148.0946 
G01 X93.0241 Y148.0946 
G01 X92.5703 Y147.6408 
G01 X92.5703 Y147.6378 
G01 X92.5448 Y147.6378 
G01 X92.5448 Y147.6512 
G00 Z2.5400  
G00 X92.5448 Y147.0019 
G01 Z-0.1778 F254   
G01 X92.5703 Y147.0019 F508   
G01 X92.5703 Y146.9991 
G01 X93.0241 Y146.5453 
G01 X93.0269 Y146.5453 
G01 X93.0269 Y146.5198 
G01 X93.0135 Y146.5198 
G01 X92.5448 Y146.9886 
G01 X92.5448 Y147.0019 
G00 Z2.5400  
G00 X93.6762 Y148.1200 
G01 Z-0.1778 F254   
G01 X94.1450 Y147.6512 F508   
G01 X94.1450 Y147.6378 
G01 X94.1196 Y147.6378 
G01 X94.1196 Y147.6408 
G01 X93.6658 Y148.0946 
G01 X93.6628 Y148.0946 
G01 X93.6628 Y148.1200 
G01 X93.6762 Y148.1200 
G00 Z2.5400  
G00 X8.1666  Y128.7398 
G01 Z-0.1778 F254   
G01 X8.0422  Y128.7594 F508   
G01 X7.9223  Y128.7984 
G01 X7.8100  Y128.8556 
G01 X7.7084  Y128.9294 
G01 X7.6190  Y129.0188 
G01 X7.5452  Y129.1204 
G01 X7.4935  Y129.2219 
G01 X7.5229  Y129.2219 
G01 X7.5431  Y129.1730 
G01 X7.6278  Y129.0461 
G01 X7.7357  Y128.9382 
G01 X7.8626  Y128.8535 
G01 X8.0036  Y128.7951 
G01 X8.1532  Y128.7653 
G01 X8.5719  Y128.7653 
G01 X8.5719  Y128.7398 
G01 X8.1666  Y128.7398 
G00 Z2.5400  
G00 X10.2346 Y129.1204 
G01 Z-0.1778 F254   
G01 X10.1607 Y129.0188 F508   
G01 X10.0714 Y128.9294 
G01 X9.9697  Y128.8556 
G01 X9.8574  Y128.7984 
G01 X9.7376  Y128.7594 
G01 X9.6132  Y128.7398 
G01 X9.2078  Y128.7398 
G01 X9.2078  Y128.7653 
G01 X9.6267  Y128.7653 
G01 X9.7763  Y128.7951 
G01 X9.9173  Y128.8535 
G01 X10.0442 Y128.9382 
G01 X10.1521 Y129.0461 
G01 X10.2368 Y129.1730 
G01 X10.2570 Y129.2219 
G01 X10.2863 Y129.2219 
G01 X10.2346 Y129.1204 
G00 Z2.5400  
G00 X17.0855 Y156.1990 
G01 Z-0.1778 F254   
G01 X17.8023 Y156.1990 F508   
G01 X18.0180 Y155.9832 
G01 X18.0180 Y155.8168 
G01 X17.8023 Y155.6011 
G01 X17.0855 Y155.6011 
G01 X17.0855 Y156.1990 
G00 Z2.5400  
G00 X18.0180 Y154.9791 
G01 Z-0.1778 F254   
G01 X18.0180 Y154.8127 F508   
G01 X17.8023 Y154.5970 
G01 X17.0855 Y154.5970 
G01 X17.0855 Y155.1948 
G01 X17.8023 Y155.1948 
G01 X18.0180 Y154.9791 
G00 Z2.5400  
G00 X19.0968 Y155.6485 
G01 Z-0.1778 F254   
G01 X19.5630 Y156.1149 F508   
G01 X20.0293 Y155.6485 
G01 X20.0293 Y155.6011 
G01 X19.0968 Y155.6011 
G01 X19.0968 Y155.6485 
G00 Z2.5400  
G00 X23.1194 Y155.6485 
G01 Z-0.1778 F254   
G01 X23.5856 Y156.1149 F508   
G01 X24.0519 Y155.6485 
G01 X24.0519 Y155.6011 
G01 X23.1194 Y155.6011 
G01 X23.1194 Y155.6485 
G00 Z2.5400  
G00 X12.9333 Y154.7748 
G01 Z-0.1778 F254   
G01 X13.0256 Y154.7366 F508   
G01 X13.0438 Y154.7260 
G01 X13.0641 Y154.7206 
G01 X13.0833 Y154.7126 
G01 X13.1041 Y154.7099 
G01 X13.1245 Y154.7044 
G01 X13.1457 Y154.7044 
G01 X13.1662 Y154.7017 
G01 X13.1870 Y154.7044 
G01 X13.2082 Y154.7044 
G01 X13.2282 Y154.7098 
G01 X13.2492 Y154.7125 
G01 X13.2687 Y154.7207 
G01 X13.2889 Y154.7260 
G01 X13.3070 Y154.7365 
G01 X13.3264 Y154.7445 
G01 X13.3429 Y154.7573 
G01 X13.3613 Y154.7678 
G01 X13.3763 Y154.7829 
G01 X13.3927 Y154.7954 
G01 X13.4053 Y154.8119 
G01 X13.4204 Y154.8269 
G01 X13.4308 Y154.8451 
G01 X13.4436 Y154.8616 
G01 X13.4516 Y154.8811 
G01 X13.4622 Y154.8993 
G01 X13.4676 Y154.9196 
G01 X13.4756 Y154.9388 
G01 X13.4783 Y154.9596 
G01 X13.4838 Y154.9800 
G01 X13.4838 Y155.0012 
G01 X13.4865 Y155.0217 
G01 X13.4838 Y155.0425 
G01 X13.4838 Y155.7762 
G01 X13.4865 Y155.7969 
G01 X13.4838 Y155.8174 
G01 X13.4838 Y155.8386 
G01 X13.4783 Y155.8590 
G01 X13.4756 Y155.8798 
G01 X13.4676 Y155.8990 
G01 X13.4622 Y155.9193 
G01 X13.4516 Y155.9375 
G01 X13.4436 Y155.9570 
G01 X13.4308 Y155.9736 
G01 X13.4204 Y155.9917 
G01 X13.4055 Y156.0065 
G01 X13.3927 Y156.0233 
G01 X13.3760 Y156.0360 
G01 X13.3613 Y156.0508 
G01 X13.3430 Y156.0613 
G01 X13.3264 Y156.0741 
G01 X13.3142 Y156.0791 
G01 X13.2070 Y156.1863 
G01 X13.1491 Y156.3263 
G01 X13.1491 Y156.4779 
G01 X13.2070 Y156.6179 
G01 X13.3143 Y156.7252 
G01 X13.4543 Y156.7831 
G01 X14.2753 Y156.7831 
G01 X14.3750 Y156.7419 
G01 X14.4523 Y156.7098 
G01 X14.5353 Y156.6989 
G01 X14.6181 Y156.7098 
G01 X14.7952 Y156.7831 
G01 X15.0518 Y156.7831 
G01 X16.2855 Y156.7831 
G01 X16.3860 Y156.7415 
G01 X16.4632 Y156.7094 
G01 X16.5234 Y156.7016 
G01 X16.5459 Y156.6986 
G01 X16.5668 Y156.7013 
G01 X16.6289 Y156.7094 
G01 X16.7061 Y156.7414 
G01 X16.8066 Y156.7831 
G01 X17.7894 Y156.7831 
G01 X17.9623 Y156.7831 
G01 X17.9746 Y156.7780 
G01 X18.1022 Y156.7252 
G01 X18.2243 Y156.6031 
G01 X18.2836 Y156.5435 
G01 X18.4217 Y156.4054 
G01 X18.4706 Y156.3566 
G01 X18.5270 Y156.3001 
G01 X18.5296 Y156.2975 
G01 X18.6021 Y156.2556 
G01 X18.6602 Y156.2401 
G01 X18.6827 Y156.2340 
G01 X18.7663 Y156.2340 
G01 X18.8472 Y156.2556 
G01 X18.8879 Y156.2792 
G01 X18.9195 Y156.2973 
G01 X18.9786 Y156.3564 
G01 X19.2250 Y156.6028 
G01 X19.3472 Y156.7252 
G01 X19.4036 Y156.7485 
G01 X19.4507 Y156.7680 
G01 X19.4808 Y156.7804 
G01 X19.4872 Y156.7831 
G01 X19.6389 Y156.7831 
G01 X19.6512 Y156.7781 
G01 X19.7787 Y156.7252 
G01 X19.9008 Y156.6032 
G01 X19.9601 Y156.5437 
G01 X20.0279 Y156.4760 
G01 X20.0483 Y156.4526 
G01 X20.0571 Y156.4468 
G01 X20.0645 Y156.4393 
G01 X20.0921 Y156.4234 
G01 X20.1178 Y156.4062 
G01 X20.1277 Y156.4029 
G01 X20.1369 Y156.3975 
G01 X20.1674 Y156.3894 
G01 X20.1969 Y156.3793 
G01 X20.2076 Y156.3786 
G01 X20.2176 Y156.3759 
G01 X20.2485 Y156.3759 
G01 X20.2804 Y156.3738 
G01 X20.2909 Y156.3759 
G01 X20.3013 Y156.3759 
G01 X20.3311 Y156.3839 
G01 X20.3624 Y156.3901 
G01 X20.3719 Y156.3948 
G01 X20.3820 Y156.3975 
G01 X20.4093 Y156.4134 
G01 X20.4373 Y156.4271 
G01 X20.4450 Y156.4340 
G01 X20.4544 Y156.4393 
G01 X20.4768 Y156.4618 
G01 X20.5002 Y156.4822 
G01 X20.5060 Y156.4910 
G01 X20.5135 Y156.4984 
G01 X20.5293 Y156.5259 
G01 X20.5441 Y156.5480 
G01 X20.5635 Y156.5732 
G01 X20.5675 Y156.5831 
G01 X20.5732 Y156.5915 
G01 X20.5821 Y156.6179 
G01 X20.6033 Y156.6364 
G01 X20.6091 Y156.6452 
G01 X20.6167 Y156.6527 
G01 X20.6306 Y156.6769 
G01 X20.6551 Y156.6910 
G01 X20.6623 Y156.6983 
G01 X20.6704 Y156.7036 
G01 X20.6892 Y156.7250 
G01 X20.7159 Y156.7340 
G01 X20.7246 Y156.7398 
G01 X20.7345 Y156.7439 
G01 X20.7568 Y156.7610 
G01 X20.7843 Y156.7646 
G01 X20.7936 Y156.7685 
G01 X20.8040 Y156.7705 
G01 X20.8292 Y156.7829 
G01 X20.8574 Y156.7810 
G01 X20.8679 Y156.7831 
G01 X20.8785 Y156.7831 
G01 X20.9053 Y156.7903 
G01 X20.9321 Y156.7831 
G01 X20.9425 Y156.7831 
G01 X20.9524 Y156.7811 
G01 X20.9807 Y156.7829 
G01 X21.0059 Y156.7704 
G01 X21.0167 Y156.7683 
G01 X21.0262 Y156.7643 
G01 X21.0537 Y156.7607 
G01 X21.0760 Y156.7435 
G01 X21.0856 Y156.7396 
G01 X21.0937 Y156.7341 
G01 X21.1207 Y156.7249 
G01 X21.1392 Y156.7037 
G01 X21.1480 Y156.6979 
G01 X21.1555 Y156.6903 
G01 X21.1797 Y156.6764 
G01 X21.1938 Y156.6519 
G01 X21.2010 Y156.6447 
G01 X21.2064 Y156.6366 
G01 X21.2278 Y156.6178 
G01 X21.2367 Y156.5913 
G01 X21.2426 Y156.5825 
G01 X21.2467 Y156.5725 
G01 X21.2660 Y156.5474 
G01 X21.3046 Y156.4894 
G01 X21.3088 Y156.4792 
G01 X21.3282 Y156.4540 
G01 X21.3450 Y156.4287 
G01 X21.3530 Y156.4218 
G01 X21.3597 Y156.4129 
G01 X21.3848 Y156.3938 
G01 X21.4077 Y156.3735 
G01 X21.4174 Y156.3687 
G01 X21.4260 Y156.3621 
G01 X21.4547 Y156.3503 
G01 X21.4826 Y156.3364 
G01 X21.4933 Y156.3343 
G01 X21.5033 Y156.3301 
G01 X21.5344 Y156.3261 
G01 X21.5646 Y156.3200 
G01 X21.5755 Y156.3207 
G01 X21.5862 Y156.3193 
G01 X21.6166 Y156.3233 
G01 X21.6481 Y156.3253 
G01 X21.6584 Y156.3288 
G01 X21.6691 Y156.3302 
G01 X21.6980 Y156.3422 
G01 X21.7273 Y156.3521 
G01 X21.7361 Y156.3580 
G01 X21.7463 Y156.3622 
G01 X21.7714 Y156.3816 
G01 X21.7968 Y156.3984 
G01 X21.8037 Y156.4064 
G01 X21.8126 Y156.4131 
G01 X21.8317 Y156.4382 
G01 X21.8520 Y156.4611 
G01 X21.8568 Y156.4708 
G01 X21.8634 Y156.4794 
G01 X21.8752 Y156.5081 
G01 X21.8891 Y156.5360 
G01 X21.8912 Y156.5467 
G01 X21.9207 Y156.6180 
G01 X22.0279 Y156.7252 
G01 X22.1679 Y156.7831 
G01 X22.3195 Y156.7831 
G01 X22.4595 Y156.7252 
G01 X22.5667 Y156.6180 
G01 X22.5806 Y156.5842 
G01 X22.5861 Y156.5636 
G01 X22.5966 Y156.5454 
G01 X22.6045 Y156.5263 
G01 X22.6173 Y156.5096 
G01 X22.6279 Y156.4912 
G01 X22.6426 Y156.4765 
G01 X22.6553 Y156.4599 
G01 X22.6721 Y156.4470 
G01 X22.6870 Y156.4321 
G01 X22.7052 Y156.4216 
G01 X22.7216 Y156.4090 
G01 X22.7411 Y156.4010 
G01 X22.7594 Y156.3903 
G01 X22.7794 Y156.3850 
G01 X22.7987 Y156.3769 
G01 X22.8199 Y156.3742 
G01 X22.8401 Y156.3687 
G01 X22.8611 Y156.3687 
G01 X22.8816 Y156.3660 
G01 X22.9024 Y156.3687 
G01 X22.9238 Y156.3687 
G01 X22.9440 Y156.3742 
G01 X22.9646 Y156.3768 
G01 X22.9839 Y156.3848 
G01 X23.0045 Y156.3903 
G01 X23.0226 Y156.4008 
G01 X23.0418 Y156.4087 
G01 X23.0585 Y156.4215 
G01 X23.0769 Y156.4321 
G01 X23.0916 Y156.4468 
G01 X23.1082 Y156.4595 
G01 X23.1211 Y156.4763 
G01 X23.2476 Y156.6028 
G01 X23.3697 Y156.7251 
G01 X23.4265 Y156.7485 
G01 X23.4321 Y156.7509 
G01 X23.5033 Y156.7802 
G01 X23.5098 Y156.7831 
G01 X23.6614 Y156.7831 
G01 X23.6736 Y156.7781 
G01 X23.8014 Y156.7251 
G01 X23.9234 Y156.6032 
G01 X23.9348 Y156.5917 
G01 X24.5782 Y155.9482 
G01 X24.6360 Y155.8084 
G01 X24.6360 Y155.4950 
G01 X24.6360 Y155.2171 
G01 X24.6360 Y154.3180 
G01 X24.5781 Y154.1780 
G01 X24.4707 Y154.0707 
G01 X24.3308 Y154.0128 
G01 X24.1792 Y154.0128 
G01 X24.0392 Y154.0707 
G01 X23.9319 Y154.1780 
G01 X23.8948 Y154.2677 
G01 X23.8735 Y154.3193 
G01 X23.8629 Y154.3449 
G01 X23.8362 Y154.3796 
G01 X23.8120 Y154.4112 
G01 X23.7819 Y154.4343 
G01 X23.7457 Y154.4621 
G01 X23.6683 Y154.4942 
G01 X23.6081 Y154.5020 
G01 X23.5855 Y154.5050 
G01 X23.5025 Y154.4941 
G01 X23.4397 Y154.4680 
G01 X23.4255 Y154.4622 
G01 X23.3908 Y154.4355 
G01 X23.3592 Y154.4113 
G01 X23.3361 Y154.3812 
G01 X23.3083 Y154.3450 
G01 X23.2990 Y154.3225 
G01 X23.2763 Y154.2678 
G01 X23.2392 Y154.1779 
G01 X23.1320 Y154.0707 
G01 X22.9920 Y154.0128 
G01 X22.8405 Y154.0128 
G01 X22.7393 Y154.0547 
G01 X22.6991 Y154.0714 
G01 X22.6630 Y154.0864 
G01 X22.6208 Y154.0919 
G01 X22.5801 Y154.0973 
G01 X22.5430 Y154.0924 
G01 X22.5177 Y154.0891 
G01 X22.5118 Y154.0888 
G01 X22.4971 Y154.0865 
G01 X22.4656 Y154.0734 
G01 X22.4617 Y154.0718 
G01 X22.4327 Y154.0620 
G01 X22.4241 Y154.0562 
G01 X22.4199 Y154.0545 
G01 X22.4125 Y154.0511 
G01 X22.3918 Y154.0349 
G01 X22.3638 Y154.0313 
G01 X22.3546 Y154.0274 
G01 X22.3446 Y154.0255 
G01 X22.3193 Y154.0130 
G01 X22.2915 Y154.0149 
G01 X22.2809 Y154.0128 
G01 X22.2703 Y154.0128 
G01 X22.2433 Y154.0055 
G01 X22.2163 Y154.0128 
G01 X22.2058 Y154.0128 
G01 X22.1959 Y154.0148 
G01 X22.1680 Y154.0130 
G01 X22.1428 Y154.0255 
G01 X22.1325 Y154.0275 
G01 X22.1230 Y154.0315 
G01 X22.0949 Y154.0352 
G01 X22.0722 Y154.0526 
G01 X22.0632 Y154.0563 
G01 X22.0549 Y154.0619 
G01 X22.0279 Y154.0711 
G01 X22.0095 Y154.0922 
G01 X22.0007 Y154.0980 
G01 X21.9935 Y154.1053 
G01 X21.9689 Y154.1195 
G01 X21.9547 Y154.1441 
G01 X21.9476 Y154.1511 
G01 X21.9421 Y154.1595 
G01 X21.9209 Y154.1781 
G01 X21.9120 Y154.2044 
G01 X21.9061 Y154.2132 
G01 X21.9020 Y154.2232 
G01 X21.8830 Y154.2479 
G01 X21.8438 Y154.3068 
G01 X21.8398 Y154.3165 
G01 X21.8214 Y154.3404 
G01 X21.8036 Y154.3672 
G01 X21.7952 Y154.3745 
G01 X21.7889 Y154.3828 
G01 X21.7648 Y154.4013 
G01 X21.7408 Y154.4224 
G01 X21.7310 Y154.4272 
G01 X21.7226 Y154.4337 
G01 X21.6940 Y154.4455 
G01 X21.6659 Y154.4594 
G01 X21.6552 Y154.4615 
G01 X21.6454 Y154.4656 
G01 X21.6148 Y154.4696 
G01 X21.5840 Y154.4758 
G01 X21.5731 Y154.4751 
G01 X21.5626 Y154.4765 
G01 X21.5322 Y154.4725 
G01 X21.5005 Y154.4705 
G01 X21.4901 Y154.4670 
G01 X21.4796 Y154.4656 
G01 X21.4511 Y154.4538 
G01 X21.4213 Y154.4437 
G01 X21.4123 Y154.4377 
G01 X21.4024 Y154.4336 
G01 X21.3783 Y154.4151 
G01 X21.3517 Y154.3974 
G01 X21.3444 Y154.3890 
G01 X21.3361 Y154.3827 
G01 X21.3176 Y154.3586 
G01 X21.2965 Y154.3346 
G01 X21.2917 Y154.3248 
G01 X21.2852 Y154.3164 
G01 X21.2733 Y154.2876 
G01 X21.2595 Y154.2597 
G01 X21.2574 Y154.2492 
G01 X21.2280 Y154.1780 
G01 X21.1206 Y154.0707 
G01 X20.9807 Y154.0128 
G01 X20.8291 Y154.0128 
G01 X20.7121 Y154.0612 
G01 X20.6516 Y154.0863 
G01 X20.5757 Y154.0963 
G01 X20.5687 Y154.0972 
G01 X20.4857 Y154.0863 
G01 X20.4217 Y154.0597 
G01 X20.3082 Y154.0128 
G01 X20.1566 Y154.0128 
G01 X20.0166 Y154.0707 
G01 X19.9093 Y154.1781 
G01 X19.8722 Y154.2676 
G01 X19.8402 Y154.3450 
G01 X19.8019 Y154.3948 
G01 X19.7894 Y154.4112 
G01 X19.7748 Y154.4224 
G01 X19.7231 Y154.4621 
G01 X19.6901 Y154.4757 
G01 X19.6457 Y154.4941 
G01 X19.5747 Y154.5033 
G01 X19.5630 Y154.5049 
G01 X19.4799 Y154.4940 
G01 X19.4027 Y154.4620 
G01 X19.3529 Y154.4237 
G01 X19.3365 Y154.4112 
G01 X19.3253 Y154.3966 
G01 X19.2856 Y154.3449 
G01 X19.2699 Y154.3067 
G01 X19.2166 Y154.1779 
G01 X19.1094 Y154.0707 
G01 X18.9694 Y154.0128 
G01 X18.8178 Y154.0128 
G01 X18.6778 Y154.0707 
G01 X18.5849 Y154.1637 
G01 X18.5551 Y154.1809 
G01 X18.5125 Y154.2055 
G01 X18.4318 Y154.2271 
G01 X18.3481 Y154.2271 
G01 X18.3274 Y154.2215 
G01 X18.2674 Y154.2055 
G01 X18.1950 Y154.1637 
G01 X18.1359 Y154.1046 
G01 X18.1021 Y154.0707 
G01 X17.9622 Y154.0128 
G01 X16.8065 Y154.0128 
G01 X16.6894 Y154.0612 
G01 X16.6290 Y154.0863 
G01 X16.5530 Y154.0962 
G01 X16.5461 Y154.0972 
G01 X16.4631 Y154.0863 
G01 X16.3991 Y154.0597 
G01 X16.2856 Y154.0128 
G01 X14.7952 Y154.0128 
G01 X14.6810 Y154.0600 
G01 X14.6182 Y154.0861 
G01 X14.5422 Y154.0960 
G01 X14.5353 Y154.0970 
G01 X14.4523 Y154.0861 
G01 X14.3857 Y154.0584 
G01 X14.2753 Y154.0128 
G01 X13.9619 Y154.0128 
G01 X13.6840 Y154.0128 
G01 X13.4544 Y154.0128 
G01 X13.3539 Y154.0544 
G01 X13.2767 Y154.0865 
G01 X13.2165 Y154.0943 
G01 X13.1940 Y154.0973 
G01 X13.1731 Y154.0945 
G01 X13.1110 Y154.0865 
G01 X13.0338 Y154.0545 
G01 X12.9333 Y154.0128 
G01 X11.4430 Y154.0128 
G01 X11.3030 Y154.0707 
G01 X11.1957 Y154.1780 
G01 X11.1378 Y154.3180 
G01 X11.1378 Y154.4908 
G01 X11.1378 Y156.4779 
G01 X11.1957 Y156.6178 
G01 X11.3031 Y156.7252 
G01 X11.4430 Y156.7831 
G01 X11.5946 Y156.7831 
G01 X11.7346 Y156.7252 
G01 X11.8419 Y156.6178 
G01 X11.8998 Y156.4779 
G01 X11.8998 Y155.0504 
G01 X11.9214 Y154.9697 
G01 X11.9632 Y154.8973 
G01 X12.0223 Y154.8382 
G01 X12.0947 Y154.7964 
G01 X12.1754 Y154.7748 
G01 X12.2591 Y154.7748 
G01 X12.9333 Y154.7748 
G00 Z2.5400  
G00 X22.7131 Y154.3534 
G01 Z-0.1778 F254   
G01 X22.7440 Y154.2788 F508   
G01 X22.8012 Y154.2216 
G01 X22.8758 Y154.1907 
G01 X22.9567 Y154.1907 
G01 X23.0313 Y154.2216 
G01 X23.0885 Y154.2788 
G01 X23.1194 Y154.3534 
G01 X23.1194 Y155.1948 
G01 X24.0519 Y155.1948 
G01 X24.0519 Y154.3534 
G01 X24.0828 Y154.2788 
G01 X24.1400 Y154.2216 
G01 X24.2146 Y154.1907 
G01 X24.2955 Y154.1907 
G01 X24.3701 Y154.2216 
G01 X24.4273 Y154.2788 
G01 X24.4582 Y154.3534 
G01 X24.4582 Y155.3575 
G01 X24.4582 Y155.4384 
G01 X24.4582 Y155.7731 
G01 X24.4273 Y155.8477 
G01 X24.4217 Y155.8533 
G01 X23.7579 Y156.5172 
G01 X23.7509 Y156.5243 
G01 X23.7008 Y156.5744 
G01 X23.6261 Y156.6053 
G01 X23.5452 Y156.6053 
G01 X23.4705 Y156.5744 
G01 X23.4220 Y156.5258 
G01 X23.4134 Y156.5173 
G01 X22.7440 Y155.8477 
G01 X22.7131 Y155.7731 
G01 X22.7131 Y155.6922 
G01 X22.7131 Y155.4384 
G01 X22.7131 Y155.3575 
G01 X22.7131 Y154.3534 
G00 Z2.5400  
G00 X20.7018 Y156.4426 
G01 Z-0.1778 F254   
G01 X20.7018 Y156.4223 F508   
G01 X20.6978 Y156.4024 
G01 X20.7018 Y156.3822 
G01 X20.7018 Y154.3534 
G01 X20.7327 Y154.2788 
G01 X20.7899 Y154.2216 
G01 X20.8645 Y154.1907 
G01 X20.9454 Y154.1907 
G01 X21.0200 Y154.2216 
G01 X21.0772 Y154.2788 
G01 X21.1081 Y154.3534 
G01 X21.1081 Y155.7313 
G01 X22.0638 Y154.2976 
G01 X22.0715 Y154.2788 
G01 X22.0857 Y154.2646 
G01 X22.0971 Y154.2475 
G01 X22.1144 Y154.2360 
G01 X22.1287 Y154.2216 
G01 X22.1474 Y154.2139 
G01 X22.1642 Y154.2026 
G01 X22.1843 Y154.1986 
G01 X22.2033 Y154.1907 
G01 X22.2236 Y154.1907 
G01 X22.2435 Y154.1867 
G01 X22.2637 Y154.1907 
G01 X22.2842 Y154.1907 
G01 X22.3029 Y154.1985 
G01 X22.3228 Y154.2024 
G01 X22.3398 Y154.2138 
G01 X22.3588 Y154.2216 
G01 X22.3730 Y154.2359 
G01 X22.3901 Y154.2472 
G01 X22.4016 Y154.2645 
G01 X22.4160 Y154.2788 
G01 X22.4237 Y154.2975 
G01 X22.4350 Y154.3143 
G01 X22.4390 Y154.3344 
G01 X22.4469 Y154.3534 
G01 X22.4469 Y154.3737 
G01 X22.4509 Y154.3936 
G01 X22.4469 Y154.4138 
G01 X22.4469 Y156.4426 
G01 X22.4160 Y156.5172 
G01 X22.3588 Y156.5744 
G01 X22.2842 Y156.6053 
G01 X22.2033 Y156.6053 
G01 X22.1287 Y156.5744 
G01 X22.0715 Y156.5172 
G01 X22.0406 Y156.4426 
G01 X22.0406 Y155.0647 
G01 X21.0849 Y156.4984 
G01 X21.0772 Y156.5172 
G01 X21.0630 Y156.5314 
G01 X21.0516 Y156.5485 
G01 X21.0343 Y156.5600 
G01 X21.0200 Y156.5744 
G01 X21.0013 Y156.5821 
G01 X20.9845 Y156.5934 
G01 X20.9644 Y156.5974 
G01 X20.9454 Y156.6053 
G01 X20.9251 Y156.6053 
G01 X20.9052 Y156.6093 
G01 X20.8850 Y156.6053 
G01 X20.8645 Y156.6053 
G01 X20.8458 Y156.5975 
G01 X20.8259 Y156.5936 
G01 X20.8089 Y156.5822 
G01 X20.7899 Y156.5744 
G01 X20.7757 Y156.5601 
G01 X20.7586 Y156.5488 
G01 X20.7471 Y156.5315 
G01 X20.7327 Y156.5172 
G01 X20.7250 Y156.4985 
G01 X20.7137 Y156.4817 
G01 X20.7097 Y156.4616 
G01 X20.7018 Y156.4426 
G00 Z2.5400  
G00 X18.6905 Y154.3534 
G01 Z-0.1778 F254   
G01 X18.7214 Y154.2788 F508   
G01 X18.7786 Y154.2216 
G01 X18.8532 Y154.1907 
G01 X18.9341 Y154.1907 
G01 X19.0087 Y154.2216 
G01 X19.0659 Y154.2788 
G01 X19.0968 Y154.3534 
G01 X19.0968 Y155.1948 
G01 X20.0293 Y155.1948 
G01 X20.0293 Y154.3534 
G01 X20.0602 Y154.2788 
G01 X20.1174 Y154.2216 
G01 X20.1920 Y154.1907 
G01 X20.2729 Y154.1907 
G01 X20.3475 Y154.2216 
G01 X20.4047 Y154.2788 
G01 X20.4356 Y154.3534 
G01 X20.4356 Y155.3575 
G01 X20.4356 Y155.4384 
G01 X20.4356 Y155.7731 
G01 X20.4047 Y155.8477 
G01 X20.3991 Y155.8533 
G01 X19.7353 Y156.5172 
G01 X19.7283 Y156.5243 
G01 X19.6782 Y156.5744 
G01 X19.6035 Y156.6053 
G01 X19.5226 Y156.6053 
G01 X19.4479 Y156.5744 
G01 X19.3994 Y156.5258 
G01 X19.3908 Y156.5173 
G01 X18.7214 Y155.8477 
G01 X18.6905 Y155.7731 
G01 X18.6905 Y155.6922 
G01 X18.6905 Y155.4384 
G01 X18.6905 Y155.3575 
G01 X18.6905 Y154.3534 
G00 Z2.5400  
G00 X16.2503 Y156.1990 
G01 Z-0.1778 F254   
G01 X16.3249 Y156.2299 F508   
G01 X16.3821 Y156.2871 
G01 X16.4130 Y156.3617 
G01 X16.4130 Y156.4426 
G01 X16.3821 Y156.5172 
G01 X16.3249 Y156.5744 
G01 X16.2503 Y156.6053 
G01 X14.9115 Y156.6053 
G01 X14.8306 Y156.6053 
G01 X14.7560 Y156.5744 
G01 X14.6988 Y156.5172 
G01 X14.6679 Y156.4426 
G01 X14.6679 Y155.4384 
G01 X14.6679 Y155.3575 
G01 X14.6679 Y154.4343 
G01 X14.6679 Y154.3534 
G01 X14.6988 Y154.2788 
G01 X14.7560 Y154.2216 
G01 X14.8306 Y154.1907 
G01 X16.2503 Y154.1907 
G01 X16.3249 Y154.2216 
G01 X16.3821 Y154.2788 
G01 X16.4130 Y154.3534 
G01 X16.4130 Y154.4343 
G01 X16.3821 Y154.5089 
G01 X16.3249 Y154.5661 
G01 X16.2503 Y154.5970 
G01 X15.0742 Y154.5970 
G01 X15.0742 Y155.1948 
G01 X15.5809 Y155.1948 
G01 X15.6555 Y155.2257 
G01 X15.7127 Y155.2829 
G01 X15.7436 Y155.3575 
G01 X15.7436 Y155.4384 
G01 X15.7127 Y155.5130 
G01 X15.6555 Y155.5702 
G01 X15.5809 Y155.6011 
G01 X15.0742 Y155.6011 
G01 X15.0742 Y156.1990 
G01 X16.2503 Y156.1990 
G00 Z2.5400  
G00 X14.2400 Y154.5970 
G01 Z-0.1778 F254   
G01 X14.0680 Y154.5970 F508   
G01 X14.0680 Y156.1990 
G01 X14.2400 Y156.1990 
G01 X14.3146 Y156.2299 
G01 X14.3718 Y156.2871 
G01 X14.4027 Y156.3617 
G01 X14.4027 Y156.4426 
G01 X14.3718 Y156.5172 
G01 X14.3146 Y156.5744 
G01 X14.2400 Y156.6053 
G01 X13.4897 Y156.6053 
G01 X13.4151 Y156.5744 
G01 X13.3579 Y156.5172 
G01 X13.3270 Y156.4426 
G01 X13.3270 Y156.3617 
G01 X13.3579 Y156.2871 
G01 X13.4151 Y156.2299 
G01 X13.4897 Y156.1990 
G01 X13.6617 Y156.1990 
G01 X13.6617 Y154.5970 
G01 X13.4897 Y154.5970 
G01 X13.4151 Y154.5661 
G01 X13.3579 Y154.5089 
G01 X13.3270 Y154.4343 
G01 X13.3270 Y154.3534 
G01 X13.3579 Y154.2788 
G01 X13.4151 Y154.2216 
G01 X13.4897 Y154.1907 
G01 X13.8244 Y154.1907 
G01 X13.9053 Y154.1907 
G01 X14.2400 Y154.1907 
G01 X14.3146 Y154.2216 
G01 X14.3718 Y154.2788 
G01 X14.4027 Y154.3534 
G01 X14.4027 Y154.4343 
G01 X14.3718 Y154.5089 
G01 X14.3146 Y154.5661 
G01 X14.2400 Y154.5970 
G00 Z2.5400  
G00 X11.7220 Y156.4426 
G01 Z-0.1778 F254   
G01 X11.6911 Y156.5172 F508   
G01 X11.6339 Y156.5744 
G01 X11.5593 Y156.6053 
G01 X11.4784 Y156.6053 
G01 X11.4038 Y156.5744 
G01 X11.3466 Y156.5172 
G01 X11.3157 Y156.4426 
G01 X11.3157 Y154.4343 
G01 X11.3157 Y154.3534 
G01 X11.3466 Y154.2788 
G01 X11.4038 Y154.2216 
G01 X11.4784 Y154.1907 
G01 X12.8981 Y154.1907 
G01 X12.9727 Y154.2216 
G01 X13.0299 Y154.2788 
G01 X13.0608 Y154.3534 
G01 X13.0608 Y154.4343 
G01 X13.0299 Y154.5089 
G01 X12.9727 Y154.5661 
G01 X12.8981 Y154.5970 
G01 X11.7220 Y154.5970 
G01 X11.7220 Y156.4426 
G00 Z2.5400  
G00 X18.3934 Y154.6135 
G01 Z-0.1778 F254   
G01 X18.4243 Y154.6881 F508   
G01 X18.4243 Y154.7690 
G01 X18.4243 Y155.1037 
G01 X18.3934 Y155.1783 
G01 X18.3362 Y155.2355 
G01 X18.1737 Y155.3980 
G01 X18.3934 Y155.6176 
G01 X18.4243 Y155.6922 
G01 X18.4243 Y155.7731 
G01 X18.4243 Y156.1078 
G01 X18.3934 Y156.1824 
G01 X18.3903 Y156.1854 
G01 X18.0016 Y156.5744 
G01 X17.9269 Y156.6053 
G01 X17.8460 Y156.6053 
G01 X16.8419 Y156.6053 
G01 X16.7673 Y156.5744 
G01 X16.7101 Y156.5172 
G01 X16.6792 Y156.4426 
G01 X16.6792 Y156.3617 
G01 X16.6792 Y155.4384 
G01 X16.6792 Y155.3575 
G01 X16.6792 Y154.4343 
G01 X16.6792 Y154.3534 
G01 X16.7101 Y154.2788 
G01 X16.7673 Y154.2216 
G01 X16.8419 Y154.1907 
G01 X17.9269 Y154.1907 
G01 X18.0015 Y154.2216 
G01 X18.0587 Y154.2788 
G01 X18.3934 Y154.6135 
G00 Z2.5400  
G00 X96.2891 Y153.1681 
G01 Z-0.1778 F254   
G01 X95.7517 Y152.6307 F508   
G01 X95.0939 Y152.2509 
G01 X94.3598 Y152.0542 
G01 X93.6000 Y152.0542 
G01 X92.8660 Y152.2508 
G01 X92.2081 Y152.6308 
G01 X91.6708 Y153.1681 
G01 X91.2908 Y153.8261 
G01 X91.0942 Y154.5600 
G01 X91.0942 Y155.3198 
G01 X91.2908 Y156.0538 
G01 X91.6708 Y156.7117 
G01 X92.2081 Y157.2490 
G01 X92.8661 Y157.6290 
G01 X93.6000 Y157.8256 
G01 X94.3598 Y157.8256 
G01 X95.0938 Y157.6290 
G01 X95.7517 Y157.2490 
G01 X96.2890 Y156.7117 
G01 X96.6690 Y156.0538 
G01 X96.8656 Y155.3198 
G01 X96.8656 Y154.5600 
G01 X96.6690 Y153.8260 
G01 X96.2891 Y153.1681 
G00 Z2.5400  
G00 X9.6132  Y130.3400 
G01 Z-0.1778 F254   
G01 X9.7376  Y130.3204 F508   
G01 X9.8575  Y130.2814 
G01 X9.9698  Y130.2242 
G01 X10.0714 Y130.1504 
G01 X10.1608 Y130.0610 
G01 X10.2345 Y129.9596 
G01 X10.2863 Y129.8578 
G01 X10.2571 Y129.8578 
G01 X10.2368 Y129.9069 
G01 X10.1521 Y130.0338 
G01 X10.0442 Y130.1417 
G01 X9.9173  Y130.2264 
G01 X9.7763  Y130.2848 
G01 X9.6267  Y130.3146 
G01 X9.2078  Y130.3146 
G01 X9.2078  Y130.3400 
G01 X9.6132  Y130.3400 
G00 Z2.5400  
G00 X7.7084  Y130.1504 
G01 Z-0.1778 F254   
G01 X7.8100  Y130.2242 F508   
G01 X7.9224  Y130.2814 
G01 X8.0422  Y130.3204 
G01 X8.1666  Y130.3400 
G01 X8.5719  Y130.3400 
G01 X8.5719  Y130.3146 
G01 X8.1532  Y130.3146 
G01 X8.0036  Y130.2848 
G01 X7.8626  Y130.2264 
G01 X7.7357  Y130.1417 
G01 X7.6278  Y130.0338 
G01 X7.5431  Y129.9069 
G01 X7.5228  Y129.8578 
G01 X7.4935  Y129.8578 
G01 X7.5452  Y129.9594 
G01 X7.6190  Y130.0610 
G01 X7.7084  Y130.1504 
G00 Z2.5400  
G00 X14.8970 Y129.3505 
G01 Z-0.1778 F254   
G01 X14.8970 Y129.7293 F508   
G01 X15.0419 Y130.0794 
G01 X15.3100 Y130.3475 
G01 X15.6601 Y130.4924 
G01 X17.3597 Y130.4924 
G01 X17.7098 Y130.3475 
G01 X17.9779 Y130.0794 
G01 X18.1228 Y129.7293 
G01 X18.1228 Y129.3505 
G01 X17.9779 Y129.0004 
G01 X17.7098 Y128.7323 
G01 X17.3597 Y128.5874 
G01 X15.6601 Y128.5874 
G01 X15.3100 Y128.7323 
G01 X15.0419 Y129.0004 
G01 X14.8970 Y129.3505 
G00 Z2.5400  
G00 X15.7732 Y128.7653 
G01 Z-0.1778 F254   
G01 X17.2467 Y128.7653 F508   
G01 X17.3963 Y128.7951 
G01 X17.5373 Y128.8535 
G01 X17.6642 Y128.9382 
G01 X17.7721 Y129.0461 
G01 X17.8568 Y129.1730 
G01 X17.9152 Y129.3140 
G01 X17.9450 Y129.4636 
G01 X17.9450 Y129.6163 
G01 X17.9152 Y129.7659 
G01 X17.8568 Y129.9069 
G01 X17.7721 Y130.0338 
G01 X17.6642 Y130.1417 
G01 X17.5373 Y130.2264 
G01 X17.3963 Y130.2848 
G01 X17.2467 Y130.3146 
G01 X15.7732 Y130.3146 
G01 X15.6236 Y130.2848 
G01 X15.4826 Y130.2264 
G01 X15.3557 Y130.1417 
G01 X15.2478 Y130.0338 
G01 X15.1631 Y129.9069 
G01 X15.1047 Y129.7659 
G01 X15.0749 Y129.6163 
G01 X15.0749 Y129.4636 
G01 X15.1047 Y129.3140 
G01 X15.1631 Y129.1730 
G01 X15.2478 Y129.0461 
G01 X15.3557 Y128.9382 
G01 X15.4826 Y128.8535 
G01 X15.6236 Y128.7951 
G01 X15.7732 Y128.7653 
G00 Z2.5400  
G00 X43.5676 Y155.9832 
G01 Z-0.1778 F254   
G01 X43.7833 Y156.1990 F508   
G01 X44.2844 Y156.1990 
G01 X44.4160 Y156.0673 
G01 X43.5676 Y155.2189 
G01 X43.5676 Y155.9832 
G00 Z2.5400  
G00 X44.5001 Y154.8127 
G01 Z-0.1778 F254   
G01 X44.2844 Y154.5970 F508   
G01 X43.7833 Y154.5970 
G01 X43.6517 Y154.7285 
G01 X44.5001 Y155.5770 
G01 X44.5001 Y154.8127 
G00 Z2.5400  
G00 X40.9721 Y154.3180 
G01 Z-0.1778 F254   
G01 X40.9721 Y154.4696 F508   
G01 X41.0300 Y154.6095 
G01 X41.5353 Y155.1148 
G01 X41.5845 Y155.1640 
G01 X41.5945 Y155.1739 
G01 X41.6363 Y155.2463 
G01 X41.6579 Y155.3270 
G01 X41.6579 Y155.4107 
G01 X41.6363 Y155.4914 
G01 X41.5945 Y155.5638 
G01 X41.5354 Y155.6229 
G01 X41.4630 Y155.6647 
G01 X41.3823 Y155.6863 
G01 X41.2986 Y155.6863 
G01 X41.2774 Y155.6863 
G01 X41.1373 Y155.7442 
G01 X41.0301 Y155.8514 
G01 X40.9721 Y155.9914 
G01 X40.9721 Y156.1430 
G01 X41.0300 Y156.2830 
G01 X41.3497 Y156.6026 
G01 X41.4720 Y156.7252 
G01 X41.5995 Y156.7779 
G01 X41.6119 Y156.7831 
G01 X41.8685 Y156.7831 
G01 X42.4330 Y156.7831 
G01 X42.4394 Y156.7805 
G01 X42.4670 Y156.7690 
G01 X42.5164 Y156.7485 
G01 X42.5730 Y156.7252 
G01 X42.6951 Y156.6031 
G01 X42.7544 Y156.5435 
G01 X42.8332 Y156.4647 
G01 X42.9056 Y156.4229 
G01 X42.9863 Y156.4013 
G01 X43.0700 Y156.4013 
G01 X43.1507 Y156.4229 
G01 X43.2231 Y156.4647 
G01 X43.2822 Y156.5238 
G01 X43.3610 Y156.6026 
G01 X43.4833 Y156.7252 
G01 X43.5397 Y156.7485 
G01 X43.5868 Y156.7680 
G01 X43.6169 Y156.7804 
G01 X43.6233 Y156.7831 
G01 X44.2715 Y156.7831 
G01 X44.4444 Y156.7831 
G01 X44.4567 Y156.7781 
G01 X44.5843 Y156.7252 
G01 X44.7064 Y156.6031 
G01 X44.7657 Y156.5435 
G01 X44.9038 Y156.4054 
G01 X44.9527 Y156.3566 
G01 X45.0091 Y156.3001 
G01 X45.0117 Y156.2975 
G01 X45.0842 Y156.2556 
G01 X45.1423 Y156.2401 
G01 X45.1648 Y156.2340 
G01 X45.2484 Y156.2340 
G01 X45.3293 Y156.2556 
G01 X45.3700 Y156.2792 
G01 X45.4016 Y156.2973 
G01 X45.4607 Y156.3564 
G01 X45.7070 Y156.6027 
G01 X45.8293 Y156.7252 
G01 X45.8857 Y156.7485 
G01 X45.9327 Y156.7680 
G01 X45.9629 Y156.7804 
G01 X45.9692 Y156.7831 
G01 X46.1209 Y156.7831 
G01 X46.2608 Y156.7252 
G01 X46.3682 Y156.6179 
G01 X46.3915 Y156.5615 
G01 X46.4110 Y156.5144 
G01 X46.4234 Y156.4843 
G01 X46.4261 Y156.4779 
G01 X46.4261 Y156.0248 
G01 X46.4234 Y156.0041 
G01 X46.4261 Y155.9836 
G01 X46.4261 Y155.9624 
G01 X46.4316 Y155.9420 
G01 X46.4343 Y155.9212 
G01 X46.4423 Y155.9020 
G01 X46.4477 Y155.8817 
G01 X46.4583 Y155.8635 
G01 X46.4663 Y155.8440 
G01 X46.4791 Y155.8274 
G01 X46.4895 Y155.8093 
G01 X46.5043 Y155.7945 
G01 X46.5172 Y155.7777 
G01 X46.5339 Y155.7649 
G01 X46.5486 Y155.7502 
G01 X46.5669 Y155.7397 
G01 X46.5835 Y155.7269 
G01 X46.6028 Y155.7189 
G01 X46.6210 Y155.7084 
G01 X46.6414 Y155.7030 
G01 X46.6608 Y155.6949 
G01 X46.6816 Y155.6922 
G01 X46.7017 Y155.6868 
G01 X46.7230 Y155.6868 
G01 X46.7437 Y155.6841 
G01 X46.7642 Y155.6868 
G01 X46.7854 Y155.6868 
G01 X46.8058 Y155.6923 
G01 X46.8266 Y155.6950 
G01 X46.8458 Y155.7030 
G01 X46.8661 Y155.7084 
G01 X46.8843 Y155.7190 
G01 X46.9038 Y155.7270 
G01 X46.9204 Y155.7398 
G01 X46.9385 Y155.7502 
G01 X46.9533 Y155.7650 
G01 X46.9701 Y155.7779 
G01 X46.9829 Y155.7946 
G01 X46.9976 Y155.8093 
G01 X47.0081 Y155.8276 
G01 X47.0209 Y155.8442 
G01 X47.0288 Y155.8635 
G01 X47.0394 Y155.8817 
G01 X47.0448 Y155.9022 
G01 X47.0640 Y155.9485 
G01 X47.7183 Y156.6027 
G01 X47.8406 Y156.7252 
G01 X47.8970 Y156.7485 
G01 X47.9441 Y156.7680 
G01 X47.9742 Y156.7804 
G01 X47.9806 Y156.7831 
G01 X48.1322 Y156.7831 
G01 X48.2722 Y156.7252 
G01 X48.3795 Y156.6179 
G01 X48.4028 Y156.5615 
G01 X48.4223 Y156.5144 
G01 X48.4347 Y156.4843 
G01 X48.4374 Y156.4779 
G01 X48.4374 Y155.0504 
G01 X48.4590 Y154.9697 
G01 X48.5008 Y154.8973 
G01 X48.5599 Y154.8382 
G01 X48.6323 Y154.7964 
G01 X48.7130 Y154.7748 
G01 X48.7724 Y154.7748 
G01 X48.7931 Y154.7721 
G01 X48.8136 Y154.7748 
G01 X48.8348 Y154.7748 
G01 X48.8552 Y154.7803 
G01 X48.8760 Y154.7830 
G01 X48.8952 Y154.7910 
G01 X48.9155 Y154.7964 
G01 X48.9337 Y154.8070 
G01 X48.9532 Y154.8150 
G01 X48.9698 Y154.8278 
G01 X48.9879 Y154.8382 
G01 X49.0027 Y154.8531 
G01 X49.0195 Y154.8659 
G01 X49.0322 Y154.8826 
G01 X49.0470 Y154.8973 
G01 X49.0575 Y154.9156 
G01 X49.0703 Y154.9322 
G01 X49.0753 Y154.9444 
G01 X49.1825 Y155.0516 
G01 X49.3225 Y155.1095 
G01 X49.6359 Y155.1095 
G01 X49.8088 Y155.1095 
G01 X49.9488 Y155.0516 
G01 X50.0561 Y154.9443 
G01 X50.1140 Y154.8043 
G01 X50.1140 Y154.3180 
G01 X50.0561 Y154.1780 
G01 X49.9488 Y154.0707 
G01 X49.8088 Y154.0128 
G01 X49.5792 Y154.0128 
G01 X49.3225 Y154.0128 
G01 X49.2055 Y154.0612 
G01 X49.1450 Y154.0863 
G01 X49.0691 Y154.0963 
G01 X49.0621 Y154.0972 
G01 X48.9791 Y154.0863 
G01 X48.9151 Y154.0597 
G01 X48.8016 Y154.0128 
G01 X47.3112 Y154.0128 
G01 X47.1942 Y154.0612 
G01 X47.1337 Y154.0863 
G01 X47.0578 Y154.0963 
G01 X47.0508 Y154.0972 
G01 X46.9678 Y154.0863 
G01 X46.9038 Y154.0597 
G01 X46.7903 Y154.0128 
G01 X45.2999 Y154.0128 
G01 X45.1599 Y154.0707 
G01 X45.0670 Y154.1637 
G01 X45.0372 Y154.1809 
G01 X44.9946 Y154.2055 
G01 X44.9139 Y154.2271 
G01 X44.8302 Y154.2271 
G01 X44.8095 Y154.2215 
G01 X44.7495 Y154.2055 
G01 X44.6771 Y154.1637 
G01 X44.6180 Y154.1046 
G01 X44.5842 Y154.0707 
G01 X44.4443 Y154.0128 
G01 X43.7962 Y154.0128 
G01 X43.6233 Y154.0128 
G01 X43.4833 Y154.0707 
G01 X43.3904 Y154.1637 
G01 X43.3606 Y154.1809 
G01 X43.3180 Y154.2055 
G01 X43.2373 Y154.2271 
G01 X43.1536 Y154.2271 
G01 X43.1329 Y154.2215 
G01 X43.0729 Y154.2055 
G01 X43.0005 Y154.1637 
G01 X42.9414 Y154.1046 
G01 X42.9076 Y154.0707 
G01 X42.7677 Y154.0128 
G01 X41.4502 Y154.0128 
G01 X41.2773 Y154.0128 
G01 X41.1373 Y154.0707 
G01 X41.0300 Y154.1780 
G01 X40.9721 Y154.3180 
G00 Z2.5400  
G00 X49.9362 Y154.7690 
G01 Z-0.1778 F254   
G01 X49.9053 Y154.8436 F508   
G01 X49.8481 Y154.9008 
G01 X49.7735 Y154.9317 
G01 X49.6926 Y154.9317 
G01 X49.3579 Y154.9317 
G01 X49.2833 Y154.9008 
G01 X49.2261 Y154.8436 
G01 X49.1952 Y154.7690 
G01 X49.1952 Y154.6881 
G01 X49.1952 Y154.4343 
G01 X49.1952 Y154.3534 
G01 X49.2261 Y154.2788 
G01 X49.2833 Y154.2216 
G01 X49.3579 Y154.1907 
G01 X49.7735 Y154.1907 
G01 X49.8481 Y154.2216 
G01 X49.9053 Y154.2788 
G01 X49.9362 Y154.3534 
G01 X49.9362 Y154.4343 
G01 X49.9362 Y154.7690 
G00 Z2.5400  
G00 X47.9413 Y156.5744 
G01 Z-0.1778 F254   
G01 X47.2148 Y155.8477 F508   
G01 X47.1839 Y155.7731 
G01 X47.1839 Y155.6922 
G01 X47.2148 Y155.6175 
G01 X47.2720 Y155.5604 
G01 X47.3466 Y155.5295 
G01 X47.4275 Y155.5295 
G01 X47.5022 Y155.5604 
G01 X47.8533 Y155.9117 
G01 X47.8533 Y154.5970 
G01 X47.3466 Y154.5970 
G01 X47.2720 Y154.5661 
G01 X47.2148 Y154.5089 
G01 X47.1839 Y154.4343 
G01 X47.1839 Y154.3534 
G01 X47.2148 Y154.2788 
G01 X47.2720 Y154.2216 
G01 X47.3466 Y154.1907 
G01 X48.7663 Y154.1907 
G01 X48.8409 Y154.2216 
G01 X48.8981 Y154.2788 
G01 X48.9290 Y154.3534 
G01 X48.9290 Y154.4343 
G01 X48.8981 Y154.5089 
G01 X48.8409 Y154.5661 
G01 X48.7663 Y154.5970 
G01 X48.2596 Y154.5970 
G01 X48.2596 Y156.4426 
G01 X48.2287 Y156.5173 
G01 X48.1723 Y156.5735 
G01 X48.0969 Y156.6053 
G01 X48.0160 Y156.6053 
G01 X47.9413 Y156.5744 
G00 Z2.5400  
G00 X45.9300 Y156.5744 
G01 Z-0.1778 F254   
G01 X45.2035 Y155.8477 F508   
G01 X45.1726 Y155.7731 
G01 X45.1726 Y155.6922 
G01 X45.2035 Y155.6175 
G01 X45.2607 Y155.5604 
G01 X45.3353 Y155.5295 
G01 X45.4162 Y155.5295 
G01 X45.4909 Y155.5604 
G01 X45.8420 Y155.9117 
G01 X45.8420 Y154.5970 
G01 X45.3353 Y154.5970 
G01 X45.2607 Y154.5661 
G01 X45.2035 Y154.5089 
G01 X45.1726 Y154.4343 
G01 X45.1726 Y154.3534 
G01 X45.2035 Y154.2788 
G01 X45.2607 Y154.2216 
G01 X45.3353 Y154.1907 
G01 X46.7550 Y154.1907 
G01 X46.8296 Y154.2216 
G01 X46.8868 Y154.2788 
G01 X46.9177 Y154.3534 
G01 X46.9177 Y154.4343 
G01 X46.8868 Y154.5089 
G01 X46.8296 Y154.5661 
G01 X46.7550 Y154.5970 
G01 X46.2483 Y154.5970 
G01 X46.2483 Y156.4426 
G01 X46.2174 Y156.5173 
G01 X46.1610 Y156.5735 
G01 X46.0856 Y156.6053 
G01 X46.0047 Y156.6053 
G01 X45.9300 Y156.5744 
G00 Z2.5400  
G00 X44.4090 Y154.1907 
G01 Z-0.1778 F254   
G01 X44.4836 Y154.2216 F508   
G01 X44.5408 Y154.2788 
G01 X44.8755 Y154.6135 
G01 X44.9064 Y154.6881 
G01 X44.9064 Y154.7690 
G01 X44.9064 Y156.0269 
G01 X44.9064 Y156.1078 
G01 X44.8755 Y156.1824 
G01 X44.8604 Y156.1975 
G01 X44.4837 Y156.5744 
G01 X44.4090 Y156.6053 
G01 X44.3281 Y156.6053 
G01 X43.6587 Y156.6053 
G01 X43.5840 Y156.5744 
G01 X43.1922 Y156.1824 
G01 X43.1613 Y156.1078 
G01 X43.1613 Y156.0269 
G01 X43.1613 Y154.7690 
G01 X43.1613 Y154.6881 
G01 X43.1922 Y154.6135 
G01 X43.2494 Y154.5563 
G01 X43.5841 Y154.2216 
G01 X43.6587 Y154.1907 
G01 X43.7396 Y154.1907 
G01 X44.4090 Y154.1907 
G00 Z2.5400  
G00 X42.7324 Y154.1907 
G01 Z-0.1778 F254   
G01 X42.8070 Y154.2216 F508   
G01 X42.8642 Y154.2788 
G01 X42.8951 Y154.3534 
G01 X42.8951 Y154.4343 
G01 X42.8642 Y154.5089 
G01 X42.8070 Y154.5661 
G01 X42.7324 Y154.5970 
G01 X41.8435 Y154.5970 
G01 X42.8069 Y155.5604 
G01 X42.8642 Y155.6176 
G01 X42.8951 Y155.6922 
G01 X42.8951 Y156.0269 
G01 X42.8951 Y156.1078 
G01 X42.8642 Y156.1824 
G01 X42.4724 Y156.5744 
G01 X42.3998 Y156.6044 
G01 X41.7283 Y156.6053 
G01 X41.6474 Y156.6053 
G01 X41.5727 Y156.5744 
G01 X41.1809 Y156.1824 
G01 X41.1500 Y156.1078 
G01 X41.1500 Y156.0269 
G01 X41.1809 Y155.9522 
G01 X41.2381 Y155.8951 
G01 X41.3127 Y155.8642 
G01 X41.3936 Y155.8642 
G01 X41.4683 Y155.8951 
G01 X41.7720 Y156.1990 
G01 X42.2731 Y156.1990 
G01 X42.4888 Y155.9832 
G01 X42.4888 Y155.8167 
G01 X41.1809 Y154.5089 
G01 X41.1500 Y154.4343 
G01 X41.1500 Y154.3534 
G01 X41.1809 Y154.2788 
G01 X41.2381 Y154.2216 
G01 X41.3127 Y154.1907 
G01 X41.3936 Y154.1907 
G01 X42.7324 Y154.1907 
G00 Z2.5400  
G00 X56.8567 Y156.1990 
G01 Z-0.1778 F254   
G01 X57.3578 Y156.1990 F508   
G01 X57.5735 Y155.9832 
G01 X57.5735 Y155.8167 
G01 X57.3579 Y155.6011 
G01 X56.8567 Y155.6011 
G01 X56.6410 Y155.8168 
G01 X56.6410 Y155.9832 
G01 X56.8567 Y156.1990 
G00 Z2.5400  
G00 X57.5735 Y154.9792 
G01 Z-0.1778 F254   
G01 X57.5735 Y154.8127 F508   
G01 X57.3578 Y154.5970 
G01 X56.8567 Y154.5970 
G01 X56.6410 Y154.8127 
G01 X56.6410 Y154.9791 
G01 X56.8567 Y155.1948 
G01 X57.3579 Y155.1948 
G01 X57.5735 Y154.9792 
G00 Z2.5400  
G00 X53.8298 Y156.7831 
G01 Z-0.1778 F254   
G01 X53.9599 Y156.7292 F508   
G01 X53.9884 Y156.7151 
G01 X53.9990 Y156.7130 
G01 X54.0086 Y156.7090 
G01 X54.0395 Y156.7050 
G01 X54.0703 Y156.6988 
G01 X54.0809 Y156.6995 
G01 X54.0914 Y156.6981 
G01 X54.1224 Y156.7022 
G01 X54.1538 Y156.7042 
G01 X54.1639 Y156.7077 
G01 X54.1744 Y156.7090 
G01 X54.2034 Y156.7210 
G01 X54.2330 Y156.7310 
G01 X54.2417 Y156.7368 
G01 X54.2516 Y156.7409 
G01 X54.2766 Y156.7602 
G01 X54.4271 Y156.7906 
G01 X54.5755 Y156.7609 
G01 X54.7016 Y156.6765 
G01 X54.8202 Y156.4984 
G01 X54.8298 Y156.4789 
G01 X54.8436 Y156.4633 
G01 X54.8548 Y156.4464 
G01 X54.8708 Y156.4324 
G01 X54.8850 Y156.4162 
G01 X54.9023 Y156.4047 
G01 X54.9176 Y156.3912 
G01 X54.9364 Y156.3819 
G01 X54.9545 Y156.3698 
G01 X54.9744 Y156.3631 
G01 X54.9925 Y156.3541 
G01 X55.0131 Y156.3500 
G01 X55.0337 Y156.3430 
G01 X55.0546 Y156.3417 
G01 X55.0744 Y156.3377 
G01 X55.0958 Y156.3391 
G01 X55.1172 Y156.3377 
G01 X55.1370 Y156.3417 
G01 X55.1579 Y156.3430 
G01 X55.1784 Y156.3500 
G01 X55.1992 Y156.3541 
G01 X55.2176 Y156.3633 
G01 X55.2371 Y156.3698 
G01 X55.2546 Y156.3815 
G01 X55.2741 Y156.3911 
G01 X55.2897 Y156.4049 
G01 X55.3066 Y156.4161 
G01 X55.3206 Y156.4321 
G01 X55.3368 Y156.4463 
G01 X55.3482 Y156.4636 
G01 X55.3618 Y156.4789 
G01 X55.3712 Y156.4980 
G01 X55.4902 Y156.6765 
G01 X55.6163 Y156.7609 
G01 X55.7647 Y156.7906 
G01 X55.9138 Y156.7612 
G01 X56.0510 Y156.6697 
G01 X56.0583 Y156.6632 
G01 X56.0817 Y156.6397 
G01 X56.0905 Y156.6347 
G01 X56.0974 Y156.6285 
G01 X56.1261 Y156.6142 
G01 X56.1541 Y156.5980 
G01 X56.1632 Y156.5956 
G01 X56.1721 Y156.5911 
G01 X56.2045 Y156.5846 
G01 X56.2349 Y156.5764 
G01 X56.2447 Y156.5764 
G01 X56.2540 Y156.5745 
G01 X56.2858 Y156.5764 
G01 X56.3185 Y156.5764 
G01 X56.3278 Y156.5790 
G01 X56.3376 Y156.5795 
G01 X56.3683 Y156.5898 
G01 X56.3993 Y156.5981 
G01 X56.4076 Y156.6030 
G01 X56.4168 Y156.6060 
G01 X56.4434 Y156.6237 
G01 X56.4716 Y156.6399 
G01 X56.4785 Y156.6469 
G01 X56.4865 Y156.6521 
G01 X56.5074 Y156.6758 
G01 X56.5568 Y156.7252 
G01 X56.6131 Y156.7485 
G01 X56.6601 Y156.7680 
G01 X56.6903 Y156.7804 
G01 X56.6967 Y156.7831 
G01 X57.2611 Y156.7831 
G01 X57.5177 Y156.7831 
G01 X57.5299 Y156.7780 
G01 X57.6578 Y156.7250 
G01 X57.7798 Y156.6031 
G01 X57.8391 Y156.5435 
G01 X57.9772 Y156.4054 
G01 X58.0261 Y156.3566 
G01 X58.0825 Y156.3001 
G01 X58.0851 Y156.2975 
G01 X58.1576 Y156.2556 
G01 X58.2157 Y156.2401 
G01 X58.2382 Y156.2340 
G01 X58.3218 Y156.2340 
G01 X58.4027 Y156.2556 
G01 X58.4434 Y156.2792 
G01 X58.4750 Y156.2973 
G01 X58.5341 Y156.3564 
G01 X58.7804 Y156.6027 
G01 X58.9027 Y156.7252 
G01 X58.9591 Y156.7485 
G01 X59.0062 Y156.7680 
G01 X59.0363 Y156.7804 
G01 X59.0427 Y156.7831 
G01 X59.1943 Y156.7831 
G01 X59.3343 Y156.7252 
G01 X59.4416 Y156.6179 
G01 X59.4649 Y156.5615 
G01 X59.4844 Y156.5144 
G01 X59.4968 Y156.4843 
G01 X59.4995 Y156.4779 
G01 X59.4995 Y155.0504 
G01 X59.5211 Y154.9697 
G01 X59.5629 Y154.8973 
G01 X59.6220 Y154.8382 
G01 X59.6944 Y154.7964 
G01 X59.7751 Y154.7748 
G01 X59.8588 Y154.7748 
G01 X59.8637 Y154.7748 
G01 X60.0037 Y154.7169 
G01 X60.1110 Y154.6096 
G01 X60.1689 Y154.4696 
G01 X60.1689 Y154.3180 
G01 X60.1110 Y154.1780 
G01 X60.0037 Y154.0707 
G01 X59.8637 Y154.0128 
G01 X58.3733 Y154.0128 
G01 X58.2333 Y154.0707 
G01 X58.1404 Y154.1637 
G01 X58.1106 Y154.1808 
G01 X58.0680 Y154.2055 
G01 X57.9873 Y154.2271 
G01 X57.9036 Y154.2271 
G01 X57.8829 Y154.2215 
G01 X57.8229 Y154.2055 
G01 X57.7505 Y154.1637 
G01 X57.6914 Y154.1046 
G01 X57.6576 Y154.0706 
G01 X57.5178 Y154.0128 
G01 X56.8696 Y154.0128 
G01 X56.6967 Y154.0128 
G01 X56.5568 Y154.0707 
G01 X56.5074 Y154.1201 
G01 X56.4865 Y154.1438 
G01 X56.4785 Y154.1491 
G01 X56.4716 Y154.1560 
G01 X56.4434 Y154.1723 
G01 X56.4168 Y154.1899 
G01 X56.4077 Y154.1929 
G01 X56.3993 Y154.1978 
G01 X56.3683 Y154.2061 
G01 X56.3376 Y154.2164 
G01 X56.3278 Y154.2170 
G01 X56.3185 Y154.2195 
G01 X56.2858 Y154.2195 
G01 X56.2540 Y154.2214 
G01 X56.2447 Y154.2195 
G01 X56.2349 Y154.2195 
G01 X56.2044 Y154.2113 
G01 X56.1721 Y154.2048 
G01 X56.1632 Y154.2003 
G01 X56.1541 Y154.1979 
G01 X56.1261 Y154.1817 
G01 X56.0974 Y154.1674 
G01 X56.0905 Y154.1612 
G01 X56.0817 Y154.1562 
G01 X56.0583 Y154.1327 
G01 X56.0510 Y154.1263 
G01 X55.9137 Y154.0348 
G01 X55.7647 Y154.0053 
G01 X55.6163 Y154.0350 
G01 X55.4902 Y154.1194 
G01 X55.3716 Y154.2975 
G01 X55.3620 Y154.3170 
G01 X55.3482 Y154.3326 
G01 X55.3370 Y154.3495 
G01 X55.3210 Y154.3635 
G01 X55.3068 Y154.3797 
G01 X55.2895 Y154.3912 
G01 X55.2742 Y154.4047 
G01 X55.2554 Y154.4140 
G01 X55.2373 Y154.4261 
G01 X55.2174 Y154.4328 
G01 X55.1993 Y154.4418 
G01 X55.1787 Y154.4459 
G01 X55.1581 Y154.4529 
G01 X55.1372 Y154.4542 
G01 X55.1174 Y154.4582 
G01 X55.0960 Y154.4568 
G01 X55.0746 Y154.4582 
G01 X55.0548 Y154.4542 
G01 X55.0339 Y154.4529 
G01 X55.0134 Y154.4459 
G01 X54.9926 Y154.4418 
G01 X54.9742 Y154.4327 
G01 X54.9547 Y154.4261 
G01 X54.9372 Y154.4144 
G01 X54.9177 Y154.4048 
G01 X54.9021 Y154.3910 
G01 X54.8852 Y154.3798 
G01 X54.8712 Y154.3638 
G01 X54.8550 Y154.3496 
G01 X54.8435 Y154.3324 
G01 X54.8300 Y154.3170 
G01 X54.8206 Y154.2979 
G01 X54.7016 Y154.1194 
G01 X54.5755 Y154.0350 
G01 X54.4271 Y154.0053 
G01 X54.2781 Y154.0347 
G01 X54.2516 Y154.0550 
G01 X54.2417 Y154.0591 
G01 X54.2330 Y154.0649 
G01 X54.2034 Y154.0749 
G01 X54.1744 Y154.0869 
G01 X54.1639 Y154.0883 
G01 X54.1538 Y154.0917 
G01 X54.1224 Y154.0937 
G01 X54.0914 Y154.0978 
G01 X54.0809 Y154.0964 
G01 X54.0703 Y154.0971 
G01 X54.0395 Y154.0909 
G01 X54.0086 Y154.0869 
G01 X53.9990 Y154.0829 
G01 X53.9884 Y154.0808 
G01 X53.9599 Y154.0667 
G01 X53.8298 Y154.0128 
G01 X52.3394 Y154.0128 
G01 X52.1994 Y154.0707 
G01 X52.0921 Y154.1780 
G01 X52.0342 Y154.3180 
G01 X52.0342 Y154.5746 
G01 X52.0342 Y154.8043 
G01 X52.0921 Y154.9443 
G01 X52.2213 Y155.0735 
G01 X52.5975 Y155.4496 
G01 X52.6498 Y155.5019 
G01 X52.6567 Y155.5087 
G01 X52.6985 Y155.5810 
G01 X52.7201 Y155.6618 
G01 X52.7201 Y155.7454 
G01 X52.6994 Y155.8227 
G01 X52.6985 Y155.8262 
G01 X52.6567 Y155.8986 
G01 X52.5976 Y155.9577 
G01 X52.5253 Y155.9995 
G01 X52.4445 Y156.0211 
G01 X52.3609 Y156.0211 
G01 X52.3394 Y156.0211 
G01 X52.1994 Y156.0790 
G01 X52.0921 Y156.1863 
G01 X52.0342 Y156.3263 
G01 X52.0342 Y156.4779 
G01 X52.0921 Y156.6179 
G01 X52.1994 Y156.7252 
G01 X52.3393 Y156.7831 
G01 X53.6569 Y156.7831 
G01 X53.8298 Y156.7831 
G00 Z2.5400  
G00 X59.0034 Y156.5744 
G01 Z-0.1778 F254   
G01 X58.2769 Y155.8477 F508   
G01 X58.2460 Y155.7731 
G01 X58.2460 Y155.6922 
G01 X58.2769 Y155.6175 
G01 X58.3341 Y155.5604 
G01 X58.4087 Y155.5295 
G01 X58.4896 Y155.5295 
G01 X58.5643 Y155.5604 
G01 X58.9154 Y155.9117 
G01 X58.9154 Y154.5970 
G01 X58.4087 Y154.5970 
G01 X58.3341 Y154.5661 
G01 X58.2769 Y154.5089 
G01 X58.2460 Y154.4343 
G01 X58.2460 Y154.3534 
G01 X58.2769 Y154.2788 
G01 X58.3341 Y154.2216 
G01 X58.4087 Y154.1907 
G01 X59.8284 Y154.1907 
G01 X59.9030 Y154.2216 
G01 X59.9602 Y154.2788 
G01 X59.9911 Y154.3534 
G01 X59.9911 Y154.4343 
G01 X59.9602 Y154.5089 
G01 X59.9030 Y154.5661 
G01 X59.8284 Y154.5970 
G01 X59.3217 Y154.5970 
G01 X59.3217 Y156.4426 
G01 X59.2908 Y156.5173 
G01 X59.2344 Y156.5735 
G01 X59.1590 Y156.6053 
G01 X59.0781 Y156.6053 
G01 X59.0034 Y156.5744 
G00 Z2.5400  
G00 X56.6574 Y156.5744 
G01 Z-0.1778 F254   
G01 X56.2656 Y156.1824 F508   
G01 X56.2347 Y156.1078 
G01 X56.2347 Y156.0269 
G01 X56.2347 Y155.6922 
G01 X56.2656 Y155.6176 
G01 X56.3228 Y155.5604 
G01 X56.4853 Y155.3979 
G01 X56.2656 Y155.1783 
G01 X56.2347 Y155.1037 
G01 X56.2347 Y155.0228 
G01 X56.2347 Y154.6881 
G01 X56.2656 Y154.6135 
G01 X56.3228 Y154.5563 
G01 X56.6575 Y154.2216 
G01 X56.7321 Y154.1907 
G01 X56.8130 Y154.1907 
G01 X57.4824 Y154.1907 
G01 X57.5570 Y154.2216 
G01 X57.6142 Y154.2788 
G01 X57.9489 Y154.6135 
G01 X57.9798 Y154.6881 
G01 X57.9798 Y154.7690 
G01 X57.9798 Y155.1037 
G01 X57.9489 Y155.1783 
G01 X57.8917 Y155.2355 
G01 X57.7292 Y155.3980 
G01 X57.8916 Y155.5604 
G01 X57.9489 Y155.6176 
G01 X57.9798 Y155.6922 
G01 X57.9798 Y156.1078 
G01 X57.9489 Y156.1824 
G01 X57.9459 Y156.1854 
G01 X57.5571 Y156.5744 
G01 X57.4824 Y156.6053 
G01 X57.4015 Y156.6053 
G01 X56.7321 Y156.6053 
G01 X56.6574 Y156.5744 
G00 Z2.5400  
G00 X52.3748 Y156.6053 
G01 Z-0.1778 F254   
G01 X52.3002 Y156.5744 F508   
G01 X52.2430 Y156.5172 
G01 X52.2121 Y156.4426 
G01 X52.2121 Y156.3617 
G01 X52.2430 Y156.2871 
G01 X52.3002 Y156.2299 
G01 X52.3748 Y156.1990 
G01 X53.5509 Y156.1990 
G01 X53.5509 Y156.1515 
G01 X52.3002 Y154.9008 
G01 X52.2430 Y154.8436 
G01 X52.2121 Y154.7690 
G01 X52.2121 Y154.4343 
G01 X52.2121 Y154.3534 
G01 X52.2430 Y154.2788 
G01 X52.3002 Y154.2216 
G01 X52.3748 Y154.1907 
G01 X53.7945 Y154.1907 
G01 X53.8691 Y154.2216 
G01 X53.9263 Y154.2788 
G01 X53.9572 Y154.3534 
G01 X53.9572 Y154.4343 
G01 X53.9263 Y154.5089 
G01 X53.8691 Y154.5661 
G01 X53.7945 Y154.5970 
G01 X52.6184 Y154.5970 
G01 X52.6184 Y154.6444 
G01 X53.9263 Y155.9523 
G01 X53.9572 Y156.0269 
G01 X53.9572 Y156.1078 
G01 X53.9572 Y156.4426 
G01 X53.9263 Y156.5172 
G01 X53.8691 Y156.5744 
G01 X53.7945 Y156.6053 
G01 X53.7136 Y156.6053 
G01 X52.3748 Y156.6053 
G00 Z2.5400  
G00 X55.9568 Y154.4729 
G01 Z-0.1778 F254   
G01 X55.3401 Y155.3980 F508   
G01 X55.9568 Y156.3231 
G01 X55.9725 Y156.4024 
G01 X55.9566 Y156.4817 
G01 X55.9117 Y156.5488 
G01 X55.8444 Y156.5936 
G01 X55.7651 Y156.6093 
G01 X55.6858 Y156.5934 
G01 X55.6187 Y156.5485 
G01 X55.0959 Y155.7642 
G01 X54.5732 Y156.5485 
G01 X54.5061 Y156.5934 
G01 X54.4268 Y156.6093 
G01 X54.3475 Y156.5936 
G01 X54.2802 Y156.5488 
G01 X54.2353 Y156.4817 
G01 X54.2194 Y156.4024 
G01 X54.2351 Y156.3231 
G01 X54.8518 Y155.3980 
G01 X54.2351 Y154.4729 
G01 X54.2194 Y154.3936 
G01 X54.2353 Y154.3143 
G01 X54.2802 Y154.2472 
G01 X54.3475 Y154.2024 
G01 X54.4268 Y154.1867 
G01 X54.5061 Y154.2026 
G01 X54.5732 Y154.2475 
G01 X55.0960 Y155.0318 
G01 X55.6187 Y154.2475 
G01 X55.6858 Y154.2026 
G01 X55.7651 Y154.1867 
G01 X55.8444 Y154.2024 
G01 X55.9117 Y154.2472 
G01 X55.9566 Y154.3143 
G01 X55.9725 Y154.3936 
G01 X55.9568 Y154.4729 
G00 Z2.5400  
G00 X30.2905 Y127.3428 
G01 Z-0.1778 F254   
