(.../pcb-gcode-3.6.0.4/pcb-gcode.ulp)
(Copyright 2005 - 2012 by John Johnson)
(See readme.txt for licensing terms.)
(This file generated from the board:)
(.../Proyectos/ZX81ExpCard/ZX81ExpCard.brd)
(Current profile is .../pcb-gcode-3.6.0.4/profiles/mach.pp  )
(This file generated 11/10/2014 11:37:21)
(Settings from pcb-machine.h)
(  Tool Size)
(0.1778  )
(Z Axis Settings)
(  High     Up        Down     Drill)
(12.7000 	2.5400  	-0.1778 	-0.8128 )
(spindle on time = 3.0000)
(milling depth = -0.2540)
(text depth = -0.1270)
(tool change at 0.0000  0.0000  10.0000 )
(feed rate xy = F508   )
(feed rate z  = F254   )
(Settings from pcb-defaults.h)
(isolate min = 0.0254)
(isolate max = 0.5080)
(isolate step = 0.1270)
(Generated top outlines, top drill, )
(Unit of measure: mm)
( Tool|       Size       |  Min Sub |  Max Sub |   Count )
( T01 | 0.610mm 0.0240in | 0.0000in | 0.0000in |       0 )
( T02 | 0.813mm 0.0320in | 0.0000in | 0.0000in |       0 )
( T03 | 0.900mm 0.0354in | 0.0000in | 0.0000in |       0 )
( T04 | 1.016mm 0.0400in | 0.0000in | 0.0000in |       0 )
( T05 | 1.100mm 0.0433in | 0.0000in | 0.0000in |       0 )
( T06 | 1.118mm 0.0440in | 0.0000in | 0.0000in |       0 )
( T07 | 1.200mm 0.0472in | 0.0000in | 0.0000in |       0 )
( T08 | 1.321mm 0.0520in | 0.0000in | 0.0000in |       0 )
( T09 | 3.200mm 0.1260in | 0.0000in | 0.0000in |       0 )
(Metric Mode)
G21
(Absolute Coordinates)
G90
M05
G00 Z10.0000 
G00 X0.0000  Y0.0000  
M06 T01  ; 0.6096  
G01 Z0.0000  F254   
M06 T01  ; 0.6096  
G00 Z2.5400  
M03
G04 P3.000000
G82 X12.7000 Y60.9600 Z-0.8128 F254   R2.5400  P1.000000
M05
G00 Z10.0000 
M06 T02  ; 0.8128  
G01 Z0.0000  F254   
M06 T02  ; 0.8128  
G00 Z2.5400  
M03
G04 P3.000000
G82 X3.8100  Y34.2900 Z-0.8128 F254   R2.5400  P1.000000
G82 X3.8100  Y40.6400 
G82 X3.8100  Y50.8000 
G82 X6.3500  Y34.2900 
G82 X6.3500  Y57.1500 
G82 X8.8900  Y129.5400 
G82 X8.8900  Y132.0800 
G82 X8.8900  Y134.6200 
G82 X8.8900  Y137.1600 
G82 X8.8900  Y139.7000 
G82 X8.8900  Y142.2400 
G82 X8.8900  Y144.7800 
G82 X10.1600 Y103.5050 
G82 X10.1600 Y93.3450 
G82 X11.4300 Y124.4600 
G82 X11.4300 Y57.1500 
G82 X13.9700 Y124.4600 
G82 X15.2400 Y103.5050 
G82 X15.2400 Y36.8300 
G82 X15.2400 Y39.3700 
G82 X15.2400 Y41.9100 
G82 X15.2400 Y44.4500 
G82 X15.2400 Y46.9900 
G82 X15.2400 Y49.5300 
G82 X15.2400 Y52.0700 
G82 X15.2400 Y54.6100 
G82 X15.2400 Y93.3450 
G82 X16.5100 Y129.5400 
G82 X16.5100 Y132.0800 
G82 X16.5100 Y134.6200 
G82 X16.5100 Y137.1600 
G82 X16.5100 Y139.7000 
G82 X16.5100 Y142.2400 
G82 X16.5100 Y144.7800 
G82 X20.9550 Y120.6500 
G82 X20.9550 Y123.1900 
G82 X22.8600 Y36.8300 
G82 X22.8600 Y39.3700 
G82 X22.8600 Y41.9100 
G82 X22.8600 Y44.4500 
G82 X22.8600 Y46.9900 
G82 X22.8600 Y49.5300 
G82 X22.8600 Y52.0700 
G82 X22.8600 Y54.6100 
G82 X24.7650 Y137.7950 
G82 X25.4000 Y118.1100 
G82 X25.4000 Y125.7300 
G82 X25.4000 Y57.1500 
G82 X27.3050 Y137.7950 
G82 X27.3050 Y83.1850 
G82 X27.9400 Y118.1100 
G82 X27.9400 Y125.7300 
G82 X28.5750 Y85.0900 
G82 X28.5750 Y88.2650 
G82 X29.8450 Y83.1850 
G82 X30.4800 Y118.1100 
G82 X30.4800 Y125.7300 
G82 X30.4800 Y57.1500 
G82 X31.7500 Y132.7150 
G82 X31.7500 Y140.3350 
G82 X33.0200 Y118.1100 
G82 X33.0200 Y125.7300 
G82 X33.6550 Y65.4050 
G82 X33.6550 Y73.0250 
G82 X34.2900 Y132.7150 
G82 X34.2900 Y140.3350 
G82 X35.5600 Y118.1100 
G82 X35.5600 Y125.7300 
G82 X35.5600 Y36.8300 
G82 X35.5600 Y39.3700 
G82 X35.5600 Y41.9100 
G82 X35.5600 Y44.4500 
G82 X35.5600 Y46.9900 
G82 X35.5600 Y49.5300 
G82 X35.5600 Y52.0700 
G82 X35.5600 Y54.6100 
G82 X36.1950 Y65.4050 
G82 X36.1950 Y73.0250 
G82 X36.8300 Y132.7150 
G82 X36.8300 Y140.3350 
G82 X38.1000 Y118.1100 
G82 X38.1000 Y125.7300 
G82 X38.7350 Y65.4050 
G82 X38.7350 Y73.0250 
G82 X38.7350 Y88.2650 
G82 X39.3700 Y132.7150 
G82 X39.3700 Y140.3350 
G82 X40.0050 Y103.5050 
G82 X40.0050 Y106.6800 
G82 X40.0050 Y99.6950 
G82 X40.6400 Y118.1100 
G82 X40.6400 Y125.7300 
G82 X41.2750 Y65.4050 
G82 X41.2750 Y73.0250 
G82 X41.9100 Y132.7150 
G82 X41.9100 Y140.3350 
G82 X43.1800 Y36.8300 
G82 X43.1800 Y39.3700 
G82 X43.1800 Y41.9100 
G82 X43.1800 Y44.4500 
G82 X43.1800 Y46.9900 
G82 X43.1800 Y49.5300 
G82 X43.1800 Y52.0700 
G82 X43.1800 Y54.6100 
G82 X43.8150 Y65.4050 
G82 X43.8150 Y73.0250 
G82 X44.4500 Y132.7150 
G82 X44.4500 Y140.3350 
G82 X46.3550 Y65.4050 
G82 X46.3550 Y73.0250 
G82 X46.9900 Y132.7150 
G82 X46.9900 Y140.3350 
G82 X47.6250 Y117.4750 
G82 X47.6250 Y127.6350 
G82 X48.8950 Y65.4050 
G82 X48.8950 Y73.0250 
G82 X50.1650 Y103.5050 
G82 X50.1650 Y106.6800 
G82 X50.1650 Y99.6950 
G82 X51.4350 Y65.4050 
G82 X51.4350 Y73.0250 
G82 X52.0700 Y46.9900 
G82 X52.0700 Y52.0700 
G82 X53.9750 Y65.4050 
G82 X53.9750 Y73.0250 
G82 X55.2450 Y76.2000 
G82 X55.2450 Y81.2800 
G82 X55.8800 Y104.7750 
G82 X55.8800 Y36.8300 
G82 X55.8800 Y39.3700 
G82 X55.8800 Y41.9100 
G82 X55.8800 Y44.4500 
G82 X55.8800 Y46.9900 
G82 X55.8800 Y49.5300 
G82 X55.8800 Y52.0700 
G82 X55.8800 Y54.6100 
G82 X55.8800 Y97.1550 
G82 X56.5150 Y65.4050 
G82 X56.5150 Y73.0250 
G82 X56.5150 Y92.0750 
G82 X58.4200 Y104.7750 
G82 X58.4200 Y97.1550 
G82 X59.0550 Y138.4300 
G82 X59.0550 Y65.4050 
G82 X59.0550 Y73.0250 
G82 X60.9600 Y104.7750 
G82 X60.9600 Y97.1550 
G82 X61.5950 Y138.4300 
G82 X61.5950 Y65.4050 
G82 X61.5950 Y73.0250 
G82 X62.8650 Y116.8400 
G82 X62.8650 Y127.0000 
G82 X63.5000 Y104.7750 
G82 X63.5000 Y36.8300 
G82 X63.5000 Y39.3700 
G82 X63.5000 Y41.9100 
G82 X63.5000 Y44.4500 
G82 X63.5000 Y46.9900 
G82 X63.5000 Y49.5300 
G82 X63.5000 Y52.0700 
G82 X63.5000 Y54.6100 
G82 X63.5000 Y97.1550 
G82 X64.1350 Y65.4050 
G82 X64.1350 Y73.0250 
G82 X64.7700 Y132.7150 
G82 X64.7700 Y140.3350 
G82 X66.0400 Y104.7750 
G82 X66.0400 Y116.8400 
G82 X66.0400 Y127.0000 
G82 X66.0400 Y97.1550 
G82 X66.6750 Y65.4050 
G82 X66.6750 Y73.0250 
G82 X66.6750 Y92.0750 
G82 X67.3100 Y132.7150 
G82 X67.3100 Y140.3350 
G82 X68.5800 Y104.7750 
G82 X68.5800 Y97.1550 
G82 X69.2150 Y116.8400 
G82 X69.2150 Y127.0000 
G82 X69.8500 Y132.7150 
G82 X69.8500 Y140.3350 
G82 X70.4850 Y55.8800 
G82 X70.4850 Y66.0400 
G82 X71.1200 Y104.7750 
G82 X71.1200 Y97.1550 
G82 X72.3900 Y116.8400 
G82 X72.3900 Y127.0000 
G82 X72.3900 Y132.7150 
G82 X72.3900 Y140.3350 
G82 X73.6600 Y104.7750 
G82 X73.6600 Y97.1550 
G82 X74.9300 Y132.7150 
G82 X74.9300 Y140.3350 
G82 X74.9300 Y59.0550 
G82 X74.9300 Y64.1350 
G82 X74.9300 Y73.6600 
G82 X74.9300 Y78.7400 
G82 X74.9300 Y83.8200 
G82 X74.9300 Y90.1700 
G82 X75.5650 Y116.8400 
G82 X75.5650 Y127.0000 
G82 X76.2000 Y104.7750 
G82 X76.2000 Y36.8300 
G82 X76.2000 Y39.3700 
G82 X76.2000 Y41.9100 
G82 X76.2000 Y44.4500 
G82 X76.2000 Y46.9900 
G82 X76.2000 Y49.5300 
G82 X76.2000 Y52.0700 
G82 X76.2000 Y54.6100 
G82 X76.2000 Y97.1550 
G82 X77.4700 Y132.7150 
G82 X77.4700 Y140.3350 
G82 X78.7400 Y104.7750 
G82 X78.7400 Y116.8400 
G82 X78.7400 Y127.0000 
G82 X78.7400 Y97.1550 
G82 X80.0100 Y132.7150 
G82 X80.0100 Y140.3350 
G82 X80.0100 Y73.6600 
G82 X80.0100 Y78.7400 
G82 X80.0100 Y83.8200 
G82 X80.0100 Y90.1700 
G82 X81.2800 Y104.7750 
G82 X81.2800 Y97.1550 
G82 X81.9150 Y116.8400 
G82 X81.9150 Y127.0000 
G82 X82.5500 Y132.7150 
G82 X82.5500 Y140.3350 
G82 X82.5500 Y57.1500 
G82 X82.5500 Y67.3100 
G82 X83.8200 Y104.7750 
G82 X83.8200 Y113.6650 
G82 X83.8200 Y36.8300 
G82 X83.8200 Y39.3700 
G82 X83.8200 Y41.9100 
G82 X83.8200 Y44.4500 
G82 X83.8200 Y46.9900 
G82 X83.8200 Y49.5300 
G82 X83.8200 Y52.0700 
G82 X83.8200 Y54.6100 
G82 X83.8200 Y97.1550 
G82 X85.0900 Y116.8400 
G82 X85.0900 Y127.0000 
G82 X85.0900 Y132.7150 
G82 X85.0900 Y140.3350 
G82 X85.7250 Y57.1500 
G82 X85.7250 Y67.3100 
G82 X86.3600 Y104.7750 
G82 X86.3600 Y97.1550 
G82 X87.6300 Y132.7150 
G82 X87.6300 Y140.3350 
G82 X87.6300 Y44.4500 
G82 X87.6300 Y49.5300 
G82 X88.9000 Y104.7750 
G82 X88.9000 Y97.1550 
G82 X93.3450 Y137.1600 
G82 X93.3450 Y147.3200 
G82 X93.9800 Y113.6650 
G82 X93.9800 Y119.3800 
G82 X93.9800 Y121.9200 
G82 X94.6150 Y104.7750 
G82 X94.6150 Y109.8550 
M05
G00 Z10.0000 
M06 T03  ; 0.9000  
G01 Z0.0000  F254   
M06 T03  ; 0.9000  
G00 Z2.5400  
M03
G04 P3.000000
G82 X27.8000 Y150.1300 Z-0.8128 F254   R2.5400  P1.000000
G82 X27.8000 Y152.1300 
G82 X29.8000 Y150.1300 
G82 X29.8000 Y152.1300 
G82 X31.8000 Y150.1300 
G82 X31.8000 Y152.1300 
G82 X33.8000 Y150.1300 
G82 X33.8000 Y152.1300 
G82 X35.8000 Y150.1300 
G82 X35.8000 Y152.1300 
G82 X37.8000 Y150.1300 
G82 X37.8000 Y152.1300 
G82 X39.8000 Y150.1300 
G82 X39.8000 Y152.1300 
G82 X41.8000 Y150.1300 
G82 X41.8000 Y152.1300 
G82 X43.8000 Y150.1300 
G82 X43.8000 Y152.1300 
G82 X45.8000 Y150.1300 
G82 X45.8000 Y152.1300 
G82 X47.8000 Y150.1300 
G82 X47.8000 Y152.1300 
G82 X49.8000 Y150.1300 
G82 X49.8000 Y152.1300 
G82 X51.8000 Y150.1300 
G82 X51.8000 Y152.1300 
G82 X53.8000 Y150.1300 
G82 X53.8000 Y152.1300 
G82 X55.8000 Y150.1300 
G82 X55.8000 Y152.1300 
G82 X57.8000 Y150.1300 
G82 X57.8000 Y152.1300 
G82 X59.8000 Y150.1300 
G82 X59.8000 Y152.1300 
G82 X61.8000 Y150.1300 
G82 X61.8000 Y152.1300 
G82 X63.8000 Y150.1300 
G82 X63.8000 Y152.1300 
G82 X65.8000 Y150.1300 
G82 X65.8000 Y152.1300 
G82 X67.8000 Y150.1300 
G82 X67.8000 Y152.1300 
G82 X69.8000 Y150.1300 
G82 X69.8000 Y152.1300 
G82 X71.8000 Y150.1300 
G82 X71.8000 Y152.1300 
G82 X73.8000 Y150.1300 
G82 X73.8000 Y152.1300 
M05
G00 Z10.0000 
M06 T04  ; 1.0160  
G01 Z0.0000  F254   
M06 T04  ; 1.0160  
G00 Z2.5400  
M03
G04 P3.000000
G82 X3.8100  Y20.3200 Z-0.8128 F254   R2.5400  P1.000000
G82 X3.8100  Y22.8600 
G82 X3.8100  Y25.4000 
G82 X12.7000 Y62.8650 
G82 X12.7000 Y67.9450 
G82 X12.7000 Y73.0250 
G82 X12.7000 Y80.6450 
G82 X20.3200 Y62.8650 
G82 X20.3200 Y67.9450 
G82 X20.3200 Y73.0250 
G82 X20.3200 Y80.6450 
G82 X44.4500 Y86.9950 
G82 X46.9900 Y86.9950 
G82 X47.6250 Y113.0300 
G82 X49.5300 Y86.9950 
G82 X50.1650 Y113.0300 
G82 X52.0700 Y86.9950 
G82 X52.7050 Y113.0300 
G82 X53.3400 Y119.3800 
G82 X53.3400 Y125.7300 
G82 X54.6100 Y86.9950 
G82 X55.2450 Y113.0300 
G82 X57.1500 Y86.9950 
G82 X57.7850 Y113.0300 
G82 X57.7850 Y119.3800 
G82 X57.7850 Y125.7300 
G82 X59.6900 Y86.9950 
G82 X62.2300 Y86.9950 
G82 X64.7700 Y86.9950 
G82 X77.4700 Y150.4950 
G82 X80.0100 Y150.4950 
G82 X94.6150 Y47.6250 
G82 X94.6150 Y50.1650 
G82 X94.6150 Y52.7050 
M05
G00 Z10.0000 
M06 T05  ; 1.1000  
G01 Z0.0000  F254   
M06 T05  ; 1.1000  
G00 Z2.5400  
M03
G04 P3.000000
G82 X10.1600 Y11.4300 Z-0.8128 F254   R2.5400  P1.000000
G82 X10.1600 Y16.5100 
G82 X10.1600 Y21.5900 
G82 X10.1600 Y26.6700 
G82 X17.7800 Y11.4300 
G82 X17.7800 Y16.5100 
G82 X17.7800 Y21.5900 
G82 X17.7800 Y26.6700 
G82 X20.3200 Y13.9700 
G82 X20.3200 Y19.0500 
G82 X20.3200 Y24.1300 
G82 X20.3200 Y29.2100 
G82 X27.9400 Y13.9700 
G82 X27.9400 Y19.0500 
G82 X27.9400 Y24.1300 
G82 X27.9400 Y29.2100 
G82 X30.4800 Y11.4300 
G82 X30.4800 Y16.5100 
G82 X30.4800 Y21.5900 
G82 X30.4800 Y26.6700 
G82 X38.1000 Y11.4300 
G82 X38.1000 Y16.5100 
G82 X38.1000 Y21.5900 
G82 X38.1000 Y26.6700 
G82 X40.6400 Y13.9700 
G82 X40.6400 Y19.0500 
G82 X40.6400 Y24.1300 
G82 X40.6400 Y29.2100 
G82 X48.2600 Y13.9700 
G82 X48.2600 Y19.0500 
G82 X48.2600 Y24.1300 
G82 X48.2600 Y29.2100 
G82 X50.8000 Y11.4300 
G82 X50.8000 Y16.5100 
G82 X50.8000 Y21.5900 
G82 X50.8000 Y26.6700 
G82 X58.4200 Y11.4300 
G82 X58.4200 Y16.5100 
G82 X58.4200 Y21.5900 
G82 X58.4200 Y26.6700 
G82 X60.9600 Y13.9700 
G82 X60.9600 Y19.0500 
G82 X60.9600 Y24.1300 
G82 X60.9600 Y29.2100 
G82 X68.5800 Y13.9700 
G82 X68.5800 Y19.0500 
G82 X68.5800 Y24.1300 
G82 X68.5800 Y29.2100 
G82 X71.1200 Y11.4300 
G82 X71.1200 Y16.5100 
G82 X71.1200 Y21.5900 
G82 X71.1200 Y26.6700 
G82 X78.7400 Y11.4300 
G82 X78.7400 Y16.5100 
G82 X78.7400 Y21.5900 
G82 X78.7400 Y26.6700 
G82 X81.2800 Y13.9700 
G82 X81.2800 Y19.0500 
G82 X81.2800 Y24.1300 
G82 X81.2800 Y29.2100 
G82 X88.9000 Y13.9700 
G82 X88.9000 Y19.0500 
G82 X88.9000 Y24.1300 
G82 X88.9000 Y29.2100 
M05
G00 Z10.0000 
M06 T06  ; 1.1176  
G01 Z0.0000  F254   
M06 T06  ; 1.1176  
G00 Z2.5400  
M03
G04 P3.000000
G82 X11.4300 Y85.7250 Z-0.8128 F254   R2.5400  P1.000000
G82 X21.5900 Y85.7250 
M05
G00 Z10.0000 
M06 T07  ; 1.2000  
G01 Z0.0000  F254   
M06 T07  ; 1.2000  
G00 Z2.5400  
M03
G04 P3.000000
G82 X3.8100  Y103.5050 Z-0.8128 F254   R2.5400  P1.000000
G82 X3.8100  Y108.5850 
G82 X3.8100  Y113.6650 
G82 X3.8100  Y62.8650 
G82 X3.8100  Y67.9450 
G82 X3.8100  Y73.0250 
G82 X3.8100  Y78.1050 
G82 X3.8100  Y83.1850 
G82 X3.8100  Y88.2650 
G82 X3.8100  Y93.3450 
G82 X3.8100  Y98.4250 
G82 X11.4300 Y3.8100  
G82 X16.5100 Y3.8100  
G82 X21.5900 Y3.8100  
G82 X26.6700 Y3.8100  
G82 X31.7500 Y3.8100  
G82 X36.8300 Y3.8100  
G82 X41.9100 Y3.8100  
G82 X46.9900 Y3.8100  
G82 X52.0700 Y3.8100  
G82 X57.1500 Y3.8100  
G82 X62.2300 Y3.8100  
G82 X67.3100 Y3.8100  
G82 X72.3900 Y3.8100  
G82 X77.4700 Y3.8100  
G82 X82.5500 Y3.8100  
G82 X87.6300 Y3.8100  
G82 X95.2500 Y12.7000 
G82 X95.2500 Y17.7800 
G82 X95.2500 Y22.8600 
G82 X95.2500 Y27.9400 
G82 X95.2500 Y33.0200 
G82 X95.2500 Y38.1000 
G82 X95.2500 Y61.5950 
G82 X95.2500 Y66.6750 
G82 X95.2500 Y71.7550 
G82 X95.2500 Y76.8350 
G82 X95.2500 Y81.9150 
G82 X95.2500 Y86.9950 
G82 X95.2500 Y92.0750 
M05
G00 Z10.0000 
M06 T08  ; 1.3208  
G01 Z0.0000  F254   
M06 T08  ; 1.3208  
G00 Z2.5400  
M03
G04 P3.000000
G82 X20.9550 Y102.8700 Z-0.8128 F254   R2.5400  P1.000000
G82 X23.4950 Y92.7100 
G82 X26.0350 Y102.8700 
M05
G00 Z10.0000 
M06 T09  ; 3.2000  
G01 Z0.0000  F254   
M06 T09  ; 3.2000  
G00 Z2.5400  
M03
G04 P3.000000
G82 X5.0800  Y5.0800  Z-0.8128 F254   R2.5400  P1.000000
G82 X5.0800  Y154.9400 
G82 X93.9800 Y5.0800  
G82 X93.9800 Y154.9400 
T01 
G00 Z12.7000 
M05
M02
